/* XPM */
static char *_560d40b28204de0a613b60e3cb5d9beuXJv2X66Ex9QUGOq[] = {
/* columns rows colors chars-per-pixel */
"64 64 2 1 ",
"  c #FF6D00",
". c #0014FF",
/* pixels */
"................................................................",
"................................................................",
"................................................................",
"................................................................",
"................................................................",
"................................................................",
"................................................................",
"................................................................",
".................                              .................",
".................                              .................",
".................                              .................",
".................                              .................",
".................     ..........................................",
".................     ..........................................",
".................     ..........................................",
".................     ..........................................",
".................     ..........................................",
".................     ..........................................",
".................     ..........................................",
".................     ..........................................",
".................     ..........................................",
".................     ..........................................",
".................     ..........................................",
".................     ..........................................",
".................     ..........................................",
".................     ..........................................",
".................     ..........................................",
".................     ..........................................",
".................                         ......................",
".................                         ......................",
".................                         ......................",
".................                         ......................",
".................     ..........................................",
".................     ..........................................",
".................     ..........................................",
".................     ..........................................",
".................     ..........................................",
".................     ..........................................",
".................     ..........................................",
".................     ..........................................",
".................     ..........................................",
".................     ..........................................",
".................     ..........................................",
".................     ..........................................",
".................     ..........................................",
".................     ..........................................",
".................     ..........................................",
".................     ..........................................",
".................     ..........................................",
".................     ..........................................",
".................                              .................",
".................                              .................",
".................                              .................",
".................                              .................",
"................................................................",
"................................................................",
"................................................................",
"................................................................",
"................................................................",
"................................................................",
"................................................................",
"................................................................",
"................................................................",
"................................................................"
};
