/* XPM */
static char *_c6e2b36c70447c4c391a05fc46a6699tiUc581aFuiJbZAI[] = {
/* columns rows colors chars-per-pixel */
"64 64 2 1 ",
"  c red",
". c #FDFF00",
/* pixels */
"                                                                ",
"                                                                ",
"                                                                ",
"                                                                ",
"                                                                ",
"                                                                ",
"                                                                ",
"                                                                ",
"                 ..............................                 ",
"                 ..............................                 ",
"                 ..............................                 ",
"                 ..............................                 ",
"                 .....                                          ",
"                 .....                                          ",
"                 .....                                          ",
"                 .....                                          ",
"                 .....                                          ",
"                 .....                                          ",
"                 .....                                          ",
"                 .....                                          ",
"                 .....                                          ",
"                 .....                                          ",
"                 .....                                          ",
"                 .....                                          ",
"                 .....                                          ",
"                 .....                                          ",
"                 .....                                          ",
"                 .....                                          ",
"                 ..............................                 ",
"                 ..............................                 ",
"                 ..............................                 ",
"                 ..............................                 ",
"                                          .....                 ",
"                                          .....                 ",
"                                          .....                 ",
"                                          .....                 ",
"                                          .....                 ",
"                                          .....                 ",
"                                          .....                 ",
"                                          .....                 ",
"                                          .....                 ",
"                                          .....                 ",
"                                          .....                 ",
"                                          .....                 ",
"                                          .....                 ",
"                                          .....                 ",
"                                          .....                 ",
"                                          .....                 ",
"                                          .....                 ",
"                                          .....                 ",
"                 ..............................                 ",
"                 ..............................                 ",
"                 ..............................                 ",
"                 ..............................                 ",
"                                                                ",
"                                                                ",
"                                                                ",
"                                                                ",
"                                                                ",
"                                                                ",
"                                                                ",
"                                                                ",
"                                                                ",
"                                                                "
};
