/* XPM */
static char *e906571111424610b30d313c18180e2dwb60jdAWyL0QUMC6[] = {
/* columns rows colors chars-per-pixel */
"64 64 2 1 ",
"  c black",
". c white",
/* pixels */
"                                                                ",
"                                                                ",
"                                                                ",
"                                                                ",
"                                                                ",
"                                                                ",
"                                                                ",
"                                                                ",
"            .....                              .....            ",
"            ......                             .....            ",
"            .......                            .....            ",
"            .......                            .....            ",
"            ........                           .....            ",
"            .........                          .....            ",
"            ..........                         .....            ",
"            ..........                         .....            ",
"            ...........                        .....            ",
"            ............                       .....            ",
"            ..... .......                      .....            ",
"            .....  .......                     .....            ",
"            .....   ......                     .....            ",
"            .....   .......                    .....            ",
"            .....    .......                   .....            ",
"            .....     .......                  .....            ",
"            .....      ......                  .....            ",
"            .....       ......                 .....            ",
"            .....        ......                .....            ",
"            .....        .......               .....            ",
"            .....         .......              .....            ",
"            .....          ......              .....            ",
"            .....           ......             .....            ",
"            .....            ......            .....            ",
"            .....             ......           .....            ",
"            .....             ......           .....            ",
"            .....              ......          .....            ",
"            .....               ......         .....            ",
"            .....                ......        .....            ",
"            .....                 ......       .....            ",
"            .....                  .....       .....            ",
"            .....                  ......      .....            ",
"            .....                   ......     .....            ",
"            .....                    ......    .....            ",
"            .....                     .....    .....            ",
"            .....                      .....   .....            ",
"            .....                       .....  .....            ",
"            .....                       ...... .....            ",
"            .....                        ...........            ",
"            .....                         ..........            ",
"            .....                          .........            ",
"            .....                           ........            ",
"            .....                            .......            ",
"            .....                            .......            ",
"            .....                             ......            ",
"            .....                              .....            ",
"                                                                ",
"                                                                ",
"                                                                ",
"                                                                ",
"                                                                ",
"                                                                ",
"                                                                ",
"                                                                ",
"                                                                ",
"                                                                "
};
