/* XPM */
static char *_2f15ba34e184514a77e6d45f31ba82dsj65ejJ37ydXFKcf[] = {
/* columns rows colors chars-per-pixel */
"64 64 108 2 ",
"   c #006A06",
".  c #0D6A11",
"X  c #166A19",
"o  c #1C691F",
"O  c #1C6928",
"+  c #226924",
"@  c #22692C",
"#  c #266930",
"$  c #2A6833",
"%  c #2E6836",
"&  c #316839",
"*  c #37683E",
"=  c #3A6746",
"-  c #3D6748",
";  c #42664C",
":  c #44664E",
">  c #466650",
",  c #466654",
"<  c #496652",
"1  c #4B6557",
"2  c #4F655B",
"3  c #52645E",
"4  c #6E5F7D",
"5  c #566461",
"6  c #566364",
"7  c #586365",
"8  c #5B6368",
"9  c #5E626B",
"0  c #5F626C",
"q  c #61626E",
"w  c #616270",
"e  c #646173",
"r  c #676175",
"t  c #6A6077",
"y  c #6B6079",
"u  c #715E80",
"i  c #745E82",
"p  c #745E85",
"a  c #775D88",
"s  c #7A5C8B",
"d  c #7E5B8F",
"f  c #7B5C8C",
"g  c #7F5B90",
"h  c #825A93",
"j  c #815A94",
"k  c #855997",
"l  c #89579C",
"z  c #8C579F",
"x  c #865998",
"c  c #88589A",
"v  c #88589C",
"b  c #8D56A0",
"n  c #9055A4",
"m  c #9553AA",
"M  c #9554A8",
"N  c #9852AD",
"B  c #9E4FB3",
"V  c #9F4FB4",
"C  c #9A51B0",
"Z  c #9E50B3",
"A  c #A14EB7",
"S  c #A34DB8",
"D  c #A44DB9",
"F  c #A64BBD",
"G  c #A54CBC",
"H  c #A84BBE",
"J  c #BB3FD3",
"K  c #BB3FD4",
"L  c #BC3ED5",
"P  c #BF3CD8",
"I  c #C537DE",
"U  c #C13BDA",
"Y  c #C03CD9",
"T  c #C338DD",
"R  c #C438DE",
"E  c #DF0EFB",
"W  c #DF0DFC",
"Q  c #DB1AF7",
"!  c #D81FF4",
"~  c #DE12FA",
"^  c #DC15F9",
"/  c #DC18F8",
"(  c #E200FF",
")  c #E104FE",
"_  c #E00BFC",
"`  c #CD2FE7",
"'  c #CF2CEA",
"]  c #D426EF",
"[  c #D02BEB",
"{  c #D02CEB",
"}  c #D229ED",
"|  c #C735E1",
" . c #C933E3",
".. c #C835E2",
"X. c #CB31E6",
"o. c #CC30E6",
"O. c #D720F3",
"+. c #D624F1",
"@. c #D820F4",
"#. c #AF47C6",
"$. c #AB49C2",
"%. c #AC48C3",
"&. c #AD48C4",
"*. c #B047C6",
"=. c #B344CB",
"-. c #B742CE",
";. c #B444CC",
":. c #B940D2",
/* pixels */
"                                                                                                                                ",
"                                                                                                                                ",
"                                                                                                                                ",
"                                                                                                                                ",
"                                                                                                                                ",
"                                                                                                                                ",
"                                                                                                                                ",
"                                                                                                                                ",
"                                                                                                                                ",
"                                                                                                                                ",
"                                                                                                                                ",
"                                                                                                                                ",
"                                                                                                                                ",
"                                                                                                                                ",
"              3 ( ( ( ( ( e                               ] ( ( ( ( ( f                                .( ( ( ( %.              ",
"                ] ( ( ( ( N                             2 ( ( ( ( ( ( F                             % _ ( ( ( ( j               ",
"                -.( ( ( ( L                             b ( ( ( ( ( ( ..                            s ( ( ( ( ) =               ",
"                n ( ( ( ( !                             =.( ( ( ( ( ( W $                           G ( ( ( ( `                 ",
"                5 ( ( ( ( ( q                           } ( ( ( ( ( ( ( s                           | ( ( ( ( &.                ",
"                  +.( ( ( ( m                         , ( ( ( ( ' ( ( ( D                         @ E ( ( ( ( j                 ",
"                  :.( ( ( ( :.                        l ( ( ( ! Z ( ( ( I                         p ( ( ( ( ) -                 ",
"                  n ( ( ( ( O.                        =.( ( ( L 4 ( ( ( ~ @                       S ( ( ( ( '                   ",
"                  7 ( ( ( ( ( 8                       ' ( ( ( N o ^ ( ( ( p                       R ( ( ( ( #.                  ",
"                    O.( ( ( ( n                     ; ( ( ( ( r   T ( ( ( S                     + ~ ( ( ( ( k                   ",
"                    :.( ( ( ( :.                    x ( ( ( Q .   S ( ( ( R                     u ( ( ( ( ) -                   ",
"                    n ( ( ( ( +.                    #.( ( ( Y     p ( ( ( ~ +                   A ( ( ( ( '                     ",
"                    8 ( ( ( ( ( 6                   ' ( ( ( Z     # E ( ( ( u                   T ( ( ( ( #.                    ",
"                      O.( ( ( ( n                 = ) ( ( ( 4       ..( ( ( A                 o ^ ( ( ( ( k                     ",
"                      :.( ( ( ( -.                j ( ( ( ^ o       H ( ( ( T                 4 ( ( ( ( ( ;                     ",
"                      M ( ( ( ( ]                 $.( ( ( T         d ( ( ( ^ o               Z ( ( ( ( '                       ",
"                      9 ( ( ( ( ( 3               X.( ( ( S         * ) ( ( ( 4               U ( ( ( ( *.                      ",
"                        O.( ( ( ( b             * ) ( ( ( p           o.( ( ( B             . Q ( ( ( ( x                       ",
"                        J ( ( ( ( ;.            g ( ( ( ~ @           &.( ( ( U             t ( ( ( ( ( :                       ",
"                        m ( ( ( ( }             $.( ( ( |             k ( ( ( / X           C ( ( ( ( '                         ",
"                        q ( ( ( ( ( 2            .( ( ( F             ; ( ( ( ( y           L ( ( ( ( #.                        ",
"                          ! ( ( ( ( l         % _ ( ( ( f               [ ( ( ( C           ! ( ( ( ( c                         ",
"                          L ( ( ( ( =.        s ( ( ( _ &               =.( ( ( P         w ( ( ( ( ( >                         ",
"                          m ( ( ( ( }         F ( ( ( X.                z ( ( ( Q .       N ( ( ( ( {                           ",
"                          w ( ( ( ( ( ,       | ( ( ( $.                2 ( ( ( ( r       L ( ( ( ( =.                          ",
"                            ! ( ( ( ( v     # E ( ( ( h                   ] ( ( ( N       @.( ( ( ( c                           ",
"                            L ( ( ( ( =.    a ( ( ( ) =                   -.( ( ( L     0 ( ( ( ( ( >                           ",
"                            N ( ( ( ( '     D ( ( ( '                     n ( ( ( !     M ( ( ( ( [                             ",
"                            e ( ( ( ( ( :   I ( ( ( *.                    9 ( ( ( ( w   :.( ( ( ( =.                            ",
"                              ! ( ( ( ( x O ~ ( ( ( c                       @.( ( ( m   O.( ( ( ( v                             ",
"                              L ( ( ( ( #.i ( ( ( ( <                       L ( ( ( K 7 ( ( ( ( ( ,                             ",
"                              N ( ( ( ( ' A ( ( ( }                         N ( ( ( @.n ( ( ( ( }                               ",
"                              r ( ( ( ( ) X.( ( ( =.                        r ( ( ( (  .( ( ( ( =.                              ",
"                              . Q ( ( ( ( ( ( ( ( b                         . Q ( ( ( ( ( ( ( ( l                               ",
"                                L ( ( ( ( ( ( ( ( 3                           U ( ( ( ( ( ( ( ( 1                               ",
"                                C ( ( ( ( ( ( ( ]                             V ( ( ( ( ( ( ( }                                 ",
"                                t ( ( ( ( ( ( ( -.                            u ( ( ( ( ( ( ( =.                                ",
"                                . Q ( ( ( ( ( ( n                             + ~ ( ( ( ( ( ( l                                 ",
"                                  Y ( ( ( ( ( ( 8                               I ( ( ( ( ( ( 1                                 ",
"                                                                                                                                ",
"                                                                                                                                ",
"                                                                                                                                ",
"                                                                                                                                ",
"                                                                                                                                ",
"                                                                                                                                ",
"                                                                                                                                ",
"                                                                                                                                ",
"                                                                                                                                ",
"                                                                                                                                ",
"                                                                                                                                "
};
