/* XPM */
static char *_51643b29d9940a6c23b2514d8e321c8QlbmFAS2leOC5kCi[] = {
/* columns rows colors chars-per-pixel */
"64 64 241 2 ",
"   c #282325",
".  c #5A3032",
"X  c #2D536C",
"o  c #32556E",
"O  c #495057",
"+  c #45657D",
"@  c #F55352",
"#  c #F56A58",
"$  c #112D9A",
"%  c #25349B",
"&  c #0B18A2",
"*  c #0617A8",
"=  c #011EAC",
"-  c #0B19AE",
";  c #050AB7",
":  c #0715B7",
">  c #031CB4",
",  c #021BBA",
"<  c #121BB7",
"1  c #0626AA",
"2  c #1627AA",
"3  c #0734AA",
"4  c #1736AA",
"5  c #0527B7",
"6  c #0B23BC",
"7  c #1529B9",
"8  c #0735B8",
"9  c #1836B8",
"0  c #2635AD",
"q  c #2229B9",
"w  c #2538B9",
"e  c #1343B0",
"r  c #2A48B6",
"t  c #354AB9",
"y  c #2E59B9",
"u  c #4A6981",
"i  c #556E83",
"p  c #5B7184",
"a  c #0603C5",
"s  c #041AC7",
"d  c #131AC6",
"f  c #0010D6",
"g  c #0527C6",
"h  c #1529C6",
"j  c #0934C6",
"k  c #1738C6",
"l  c #072AD4",
"z  c #132DD4",
"x  c #223AC6",
"c  c #2439D3",
"v  c #1943C4",
"b  c #0743D3",
"n  c #2444C5",
"m  c #304EC9",
"M  c #0E7BCA",
"N  c #057CD9",
"B  c #227DD8",
"V  c #027AE5",
"C  c #197CE5",
"Z  c #2387BD",
"A  c #4791BF",
"S  c #0A8BCF",
"D  c #188ACB",
"F  c #1C96CC",
"G  c #1689D6",
"H  c #0898D9",
"J  c #1896D9",
"K  c #2788C6",
"L  c #3689CA",
"P  c #2B97CB",
"I  c #3494CC",
"U  c #3699CB",
"Y  c #288AD7",
"T  c #378CD9",
"R  c #2795D7",
"E  c #249AD3",
"W  c #2C9CD4",
"Q  c #239BDB",
"!  c #2B9ADC",
"~  c #339BD4",
"^  c #3998D6",
"/  c #3395DB",
"(  c #339CDB",
")  c #16ACCE",
"_  c #09A4D8",
"`  c #18A6DA",
"'  c #28A5CB",
"]  c #38A5CB",
"[  c #2FB4CE",
"{  c #27A6D8",
"}  c #2CA3DD",
"|  c #2CABDD",
" . c #34A2D5",
".. c #3CA3D4",
"X. c #37AAD4",
"o. c #34A4DC",
"O. c #3AA3DC",
"+. c #34ABDB",
"@. c #3BABDC",
"#. c #28B6DC",
"$. c #34B2DD",
"%. c #38B7DA",
"&. c #0A88E5",
"*. c #1689E3",
"=. c #0799E6",
"-. c #1B95E4",
";. c #159AE6",
":. c #1C9BE4",
">. c #0D8BF4",
",. c #1A9AF6",
"<. c #288BE6",
"1. c #358CE5",
"2. c #2897E6",
"3. c #249DE4",
"4. c #2D9CE3",
"5. c #339BE4",
"6. c #3B9AE3",
"7. c #3797E8",
"8. c #2A8DF5",
"9. c #2796F7",
"0. c #3499F4",
"q. c #0AA6E8",
"w. c #1CA4E3",
"e. c #16A9E7",
"r. c #1CA3EA",
"t. c #0BB6E9",
"y. c #18B6E6",
"u. c #07A6F6",
"i. c #19A7F6",
"p. c #07B8F8",
"a. c #1AB8F8",
"s. c #23A3E4",
"d. c #2CA4E4",
"f. c #23ABE3",
"g. c #2BABE4",
"h. c #24A3EB",
"j. c #2CA4EA",
"k. c #23ABEB",
"l. c #2CABEB",
"z. c #33A4E3",
"x. c #3CA4E3",
"c. c #34ABE3",
"v. c #3BABE3",
"b. c #34A3EB",
"n. c #3AA5EB",
"m. c #34ACEB",
"M. c #3BACEA",
"N. c #2CB3E4",
"B. c #2BBBE3",
"V. c #26B7EA",
"C. c #2DB2EB",
"Z. c #33B4E4",
"A. c #3CB3E4",
"S. c #34BBE4",
"D. c #3ABBE4",
"F. c #34B3EB",
"G. c #3BB3EB",
"H. c #34BBEB",
"J. c #3BBBEB",
"K. c #26A9F7",
"L. c #2BABF3",
"P. c #37A9F6",
"I. c #28B7F5",
"U. c #33B4F1",
"Y. c #3BB5F3",
"T. c #3BBCF4",
"R. c #38B8F9",
"E. c #4798C9",
"W. c #4F93D3",
"Q. c #4599D8",
"!. c #4AA5CC",
"~. c #58A5CD",
"^. c #54B4CB",
"/. c #43A2D4",
"(. c #4AA9D7",
"). c #44A4DB",
"_. c #44ABDD",
"`. c #4CABDD",
"'. c #56A9DA",
"]. c #48B5D9",
"[. c #56B4DA",
"{. c #63AADA",
"}. c #67B6DC",
"|. c #72B5D9",
" X c #459AE7",
".X c #4E9DEA",
"XX c #42A5E3",
"oX c #49A4E6",
"OX c #44ABE3",
"+X c #4BACE3",
"@X c #43ACEA",
"#X c #4AABEB",
"$X c #56AAE6",
"%X c #43B4E4",
"&X c #4BB3E4",
"*X c #43BCE5",
"=X c #4CBCE4",
"-X c #43B3EA",
";X c #4BB4EB",
":X c #44BCEB",
">X c #4BBBEB",
",X c #53B4E3",
"<X c #59B9E7",
"1X c #52B4EA",
"2X c #47AAF6",
"3X c #53A9F6",
"4X c #43B5F2",
"5X c #42BCF3",
"6X c #4CBBF3",
"7X c #49B9F8",
"8X c #56B8F6",
"9X c #67ADE3",
"0X c #65B9E8",
"qX c #64B8F7",
"wX c #38C2DC",
"eX c #13C5F0",
"rX c #28C3E8",
"tX c #39C5E8",
"yX c #2AC5F8",
"uX c #39C5F6",
"iX c #36D2F2",
"pX c #66C1DC",
"aX c #48CFE6",
"sX c #47C4E8",
"dX c #59C5E7",
"fX c #48C6F9",
"gX c #57C6F8",
"hX c #4CD3F0",
"jX c #59D6FC",
"kX c #65C5E8",
"lX c #6AC6F6",
"zX c #76CBF1",
"xX c #66D5FA",
"cX c #F2DB90",
"vX c #81BFE2",
"bX c #A4C5DB",
"nX c #84D2EC",
"mX c #B5D6ED",
"MX c #CADFF1",
"NX c #DBECF9",
"BX c #EAF3FA",
/* pixels */
"=XQ o.H 4.yX+XI c.h E +.| r.dXfXG.l.7X;.1Xv.v.3.o o p i i i i i i i u u o + + X Z.$.XXK J.x ( M W.0.(.~ (.| c.P.a.fXo.K e.!.| E ",
"a.kXK.9XeXuX=.@.>.4 d.z.c.N.:X`.T.fXdX*XC.0X<XJ.p BXBXNXNXNXMXMXMXMXmXmXmXbXbX+ *.2X).lX[.9 A.fX2.b.P.<.{ P jX9Xt.c.XXv.o.t.q.Y ",
"c.T.<X] q.;X6.^ E.9 0X]._ ^ W.#.s.A.@X7.L.6XT 3Xp BXBXNXNXNXMXMXMXMXmXmXmXbXbX+ Y XX].3X Xg ! @.f.! E.( ` v.' O.T.k.T =XgXyXs.^ ",
"x.dX..B./ R W W <X5 7X^ K ! l.F.C z.Y.tX0X-XS #.X p p i i i i i i i u u u + + X tX3.f.m.<X: 6X[.l.-.J.R dX5Xz.T.XX^ 2X[.zXE.F.P.",
"sXr.h.P =X3X=.#X .: ].%.c.G 2X} r.-Xv.dXl.g.yX%.Z.k.8 i NXNXMXMXMXMXmXmXu 2.OXl.T oX) U..X; #XA.<X/.hX3.k.Y dXoXP fX`.g.gX4Xk.+.",
"tXq.XXdXwX:X2.2.P 5 _.w.I.&X<Xo.*XI.%.Y -XH.).N eXm.% i NXNXMXMXMXMXmXmXu c.C.D Y._.<X+XP.1 [.4.f.i.l.uXB r.7XH 2XG.tXxX| x.(.E ",
"{ G.%.1Xs.<Xb.+Xg.z 8X@.tX$Xw._.&.S I r.m.$X;Xx.qX!.t i NXNXMXMXMXMXmXmXu { H.J.O.F. Xb.] 6 q.s.N.+XdX$.H.kXuXK.h.tXB._ K.E OX%X",
"9 c z q ; 9 7 k * 8 2 7 > l h 2 g 7 : h 2 7 7 5 5 7 z i NXNXMXMXMXMXmXmXu n j z < 7 q 6 4 2 7 s : 8 3 1 8 h 4 4 > s f 2 g , 2 : ",
"'.' w.n.I.@X>XP.g.}.F.' !.z.C zXZ.s sX&X#.r.W ` w.uX'.i NXNXMXMXMXMXmXmXu [ 0XOXr.8X{ l.dXB.fX! =.7XlXA.;X>X7X&  X{ 8X/ R 4.2.4X",
"G.J.pX..g.OXP P `.J O.5X/ k.&X+XT.d w.kXB.U.;X-X].9XQ.i NXNXMXMXMXMXmXmXu +Xu.rX! fX0X( ~ -.s.i.F.9Xd.J '.0X~.1 A.d.H.W.+.A.Z.tX",
"yX'.-.zX(.%XI S.K.J D.' J O.R.G 6Xc *.T Y.dXz.7.M.j.^ i NXNXMXMXMXMXmXmXu rX-XB 0X( ~ O.X.X.e.kXH.1.%X,Xl.7.L 4 |.R.'.w.<.A.xX` ",
"| &X] 0.G.s./.6.W ,XuX<XI b.q.+.qX* @.Q.=XfXd.^ dX1.sXi NXNXMXMXMXMXmXmXu R.1XK.S.v.k.D G 0X6.T.` OX4X+.~ 4.c.8 &Xc.[ W D.A.3X..",
"7.g.V.>.%.W W.| ;XsXtXD.z.Y I hX6Xc L  .:.Z.-Xv.| X.! i NXNXMXMXMXMXmXmXu m.@.:.v.y.H +X].K. .} ;Xo.gXm.*.m.-.% d.A.S G >X+XoX{ ",
"g. X<XR.j.-X&.v.3.fXo.<XI.,XF U.| n R L.@.A.;X4Xc.( R.i NXNXMXMXMXMXmXmXu /.fXx.sXQ uX[.o.Z.L j.kX*XK q.oXl.Y.x D.X.kX5.]. .9XX.",
"h.XXF.[.>X&.{ *X~ t.N.R.I V.'.n.-X$ Y c.Q lXK.!.{.L.P.i NXNXMXMXMXMXmXmXu a.M.=.X.Y.:.@.7.~.[.t.x.T '.1X^ t.F 7 @X6.x.,X$.Q.f.O.",
"1 2 9 j 8 5 2 7 9 5 = g : 1 h w , s r 7 g 1 r * ; * s i NXNXMXMXMXMXmXmXu g n g < = r c * 3 s 3 3 g h x , g a 9 5 : & 9 d = 8 $ ",
"T /.f.=.( O.,X+X2Xr L F.@Xd.D.sX(._.7XQ.>X6.0XlXn.-X6 i NXNXMXMXMXMXmXmXu e.yX^ A.7X].V E g { c.q.P.P ;Xr.R.#.0X&.J OX-.uXXX! } ",
"' fX~.H ` H v.7.s.; V.2.XXk.I.!.dX] T ~.k.OX'.F.d.P w i NXNXMXMXMXMXmXmXu v.H Y N.2XL.Z.sXz I.D.{.) :.i.U -.w.s.;.>X`.$X_ (.s.sX",
"~ -X=X;X@.z.y.yX( ; F.o.=X&Xw.lX(.6X^.dXH sX9.A.sXuX> i NXNXMXMXMXMXmXmXu c.uXF S <XV e.e.< @.R.t.J.Y uXuXqXl.2X(._. X9XQ.fX=.T.",
"A.3.{ } ;.z.h.5.d.> A.R N dX;.A.Z.H -X4Xi.c.U A.R.$X9 i NXNXMXMXMXMXmXmXu c.6.%.X.4X2.<XgXh -.M.eX+.;X7X:.<XR 9.$XfXz.0.qXY.~ fX",
"[.<X&Xi.I.f.6.R.6.f g.=X@XE e.,.o.^ 6XY &XH.0XQ.Y.K.4 i NXNXMXMXMXMXmXmXu &Xu.B.M.E.&X4XoX9 n. X[.} q. XA.R.i./ z.).| ;XR.J g.tX",
"..d.6X XF 2.Q gXu.t *.c.OXF. .P 1X}.G.rXx.R fXH.;.<Xz i NXNXMXMXMXMXmXmXu q.e.+.=.oXH P E 9 n.gXB.%.6.*XW S.G dX`.P. XtX<.M.!.%.",
"M.].( $.|.u.iXA.k.g j.X.P U.X.l.1Xw.Y -. .>.4XW A.` = i NXNXMXMXMXMXmXmXu ~.#.P.&.2X#X .x.a (.I.rXF.x.v.U OXzXM.w.:.r.R.1XjX+XH.",
"* 9 > 3 4 ; 9 5 * 6 g e ; f : 9 h l k s = ; r - e 9 , i NXNXMX# @ MXmXmXu 6 t 5 2 9 g s r ; 8 s q x w = 7 1 9 g q x 2 5 4 m 4 n ",
">X&.:Xu.| E.%.*.(.|.OX^ ,.v.8XU.4X6 S.Q l._.c.D } { ~ i NXNX@ @ # # mXmXu OX1.<.OX=X;XJ +X$Xr.|.gX@.kXQ f.uXtX9 H 9.w.w.V ( Q.C ",
"D | yX#.F.%.fXV.o.H.D.sXL +X=X/ 3X5 ).p.$.qXI.3.gX>X;.i NXNX# @ # @ mXmXu ( T.<X9.[ gX%.~ q.%XH.T X.!.m.L.xX3., T s.6X| O.} (.` ",
"2.-XW.s.uX8.L.;.[.t.T.%.v.y.fXb.0Xa u.sX~ N !.y.-X^ :Xi NXNX# cXcX# mXmXu ^ $.{ [.+XfX[.F OXiXS.1XD.5.=.;.f.$.e s.F.'.R.oXE ! c.",
"Z.(.gXh.>XU e.&XG.&X}.iXv.G.^.gXa.5 F.l.xXd.<Xm.+.sX} i NXNXMXcXcXMXmXmXu m.m.nXuXY gX=.6.( ;Xa.jXa.V.@XOXG.fXg I Y rXz.=Xg.`.z.",
").5Xl.( ].v.pXR.Q ).c.=X .D.#.eXm.4 d.@.f.;X=X7.R P.T.i NXNXMX. . MXmXmXu <X,.e.G.D.3.~.A.F.r. .H T H v.l...;.5 y.s.M.,XsXH.!.=.",
"' 7XXX6Xy.`  .%X,X' zXi.Y.:.J.} B c B.P 2Xe.=XE kXxXG i NXNXMX. . MXmXmXu yX'.D OX`.XXlX!.1Xz.8.+.G.L.'.Y.J U.8 #XN n.#.].W B.%.",
"xXg.fXlX`.U aXX.G A.e.XX2.a.q.x.lX7 ;.v.@Xz.uX}.L P } i NXNXMX. . MXmXmXu C.@XD Y.3.7XH 6.7.}.=.O.W.4...4X`.tX7 M.Q.| &.k.A.N.%.",
"2 l k = c 6 a - 1 m ; h k j e 5 5 d j k 5 > g g 1 * g i NXNXMX. . MXmXmXu d 4 k l % 7 d l y : q x y r b > * 5 > > j 1 6 g s 9 6 ",
"w.a.z.n.A H D sXD.< a._ O.v.gX} uX*X'.@X2.fXW.^ +Xk., i NXNXO     O mXmXu -Xv.x.<XL.2.1X9X6 gXiXE.4.~ [.<XD./.kXXX<Xd.x.P.q.R.;X",
"| j.O./ OX6XO.dXM.5 $XJ.x.2.t.c.7.tXG W.9X6Xx.c.@.8.t i NXNXMX. . MXmXmXu o.4.{ `.rXT 3.l.% '.D.=XY.2.aX<XoX$XgXB.M.'.).| m.F.sX",
"Q.7X<X^ 2.,X;.<X=.> =.! n.P ] jXu.6X8XkXz.gXT.P.v.0.5 i NXNXMX. . MXmXmXu =Xc.OX(.2.x.I.` c L.5.].gX~ z.3.x.L.-X5.`.! / o.F.iX%X",
"0XL.s.].:.+X^ +X=.z r.E.z.I Z./ l.0.gX| ~.:Xo.c.vX| 1 i NXNXMX. . MXmXmXu n. Xi.*.M F.~ @.m @.}.~ `.K }.q.uXx.+XXXE.H.l.v.! +.e.",
"U.}.V.&XN %.6Xi.G.s P / { *.1X@Xj.B.qX0XA U..X=.F D.3 i NXNXMXMXMXMXmXmXu fXfX5Xx.;.T %.b.8 3.T.k.sXtX@.0Xn.Y.:X*.hX-.<X8Xz.U.w.",
"*.7.H.5.@.` B &.K.k 1X/ 3.,XS fXx.=.F U.r.$.D 4Xp.z.2 i NXNXMXMXMXMXmXmXu Y.kX'.tX6.' ).Z.8 iXf.d.0Xe.v.f.7X$X%.c./ (.%.U tX#X .",
"^ XXD qX .J T.X.c.7 1XgXD.$.y.5.Z.(.i.(.0.Y.^ 0XV.w.h i NXNXMXMXMXMXmXmXu Y ( D.-.+.2.@X#X9 8X&Xm.w./.z.x.sXK.R.lXT -Xy.P / :Xe.",
"7 : l k % $ j e a 2 h m b $ * s 5 1 > < j 7 2 ; 5 n 9 i NXNXMXMXMXMXmXmXu 9 w < 9 5 ; 7 t g 1 w 8 5 > e 7 1 = 2 9 r 1 h g 1 7 - ",
"r...OX>X+Xw.yX_.R._.eXS.n.@.1.^ -X2 ].d.Q.( }.z.v.$.! i NXNXMXMXMXMXmXmXu 0X5.G | M.`.M.=.7.~ #.Q.yX>X$XM.$X;.8 y.J 0X] <Xq.$X4.",
"J xX0XdXD.sXx.uX6X).m.c.z.%Xi.u.yX; Q U R sX/ fX0XfXjXi NXNXMXMXMXMXmXmXu o.~ H.G.4X[.C.|.^.rX$XG.o.f.C T.tXY.&  Xa.o.yX1.=XJ.~ ",
"N l.XX6.%X`.0XsX6X,XjX'.#XkXiXx.e.e A.9XQ lXn.#X3.1.H i NXNXMXMXMXMXmXmXu iXT } 3XeX' N.! #.:.R C.0.4.gXj.C.A.d /.;.7...N./ sXJ ",
"1XdXD.@X%X*.F `.=.Y.S I J y.4.7.g.e Z.G .X;X^ J P -.U i NXNXMXMXMXMXmXmXu ].gXv.m.5.R.U.V.(./.*XM ` P ^ {.%.:.; J s.@.+.%X} i.].",
"P.m..X!.=.2XhX7X3XL.b.x.k.W C.qX}.> j.I.a.E tXgXU 0.X.i NXNXMXMXMXMXmXmXu &X~ '.+X!.#.o.<XY.c.r.xX%.>.T kXW +.2 x.~ 4.f.B.4.Y.%X",
"' dX(.g.0.o./ ! $.;XM H rXuXm.%.2X* uXe.J.C.K.A.U d.z.i NXNXMXMXMXMXmXmXu v.uX8XdXC t.P <.yXj.v.[.P.T.=Xu.P.y.6 9.G.P ~ 5XxXc.! ",
"+Xq.;X5...,X*X@.7.x.*.` W ,.y.L.$.c &X/ '.] U B.+XM.R.i NXNXMXMXMXMXmXmXu @.t.=.G ;.&X^ ;X2.Y 0X'.J lXo. XJ.'.s B.].~.wX^.;.G.2.",
"= r 0 8 > j % < s , * v ; 5 w h j h 8 2 < ; e k 1 l w i NXNXMXMXMXMXmXmXu j 2 : 9 9 h 7 9 e q k 6 6 5 l - j 5 , s j h f 5 m w n ",
"5.X.@.^ 6.n.=X<X&.; ].~ S [.t.i.A.oX4.T.F.>X<XV.hXkXm i NXNXMXMXMXMXmXmXu %.sXQ. XgX} P.-Xk -XOX+.@.>X9.g.;X0XL.u.#X=.%.3.-XU.V.",
"=.xX_ C &X2.[. .S.< { x.%XI./.T.[.,XP.k._ r.;X(.Q 4Xj i NXNXMXMXMXMXmXmXu k.!.@.z.K.Z.X.$X< <XI W /.l.' fXjXi.Q.L.K.uXgX2.r.X.E ",
"].n.W kXi.v.n.2.w.1 6.tXD.rX}.[.Z.y.-X&X^.:.tXj.uX#Xx i NXNXMXMXMXMXmXmXu uXuX0X8XF._ e.5.0 M.K.2X`.m.h.e.z.%X[ =X8X{.uX-X5.K.6X",
"U.X.l.g.g.J.+.].e.- ,XD.E `.I.3.#X|.m.5.kX;.4X<Xv.2Xd i NXNXMXMXMXMXmXmXu G.yXs.8Xs.&Xn.z.7 U n.XX~.l.I n.4XQ #.w.X.U.V.gX*.i.9.",
"] I P R.C.m.z.v...4 O.=XT.[.].,XlX2XQ qX).V. X$X%.G.g i NXNXMXMXMXMXmXmXu >Xv.].}.-X8Xk.l.: O.5XS.f.I.1XE E tXA.>.I.#Xj.e.N.z.a.",
"H 3X7X!.OX[.! zX( k 5.%.{.r.l.N.f...$Xg.g.G } .Xl.@.w i NXNXMXMXMXMXmXmXu `.h.OX7.| y.hXOXs kXY {.i.d.H.gXQ 1X7.(.OXr.( rX( *Xs.",
"L.<.o.I F.J.Y I.R 3 Q e.2XsXa.7XdX3.2.[.*Xu.M.{.M.;.h i NXNXMXMXMXMXmXmXu e.`.&XH.c.c.P $., P.4.{ 3.L.4XI.v.0X! &Xc.V.+.4XOX+.r.",
"5 : 0 8 4 1 h ; < - : 9 j m 9 7 m 1 5 & k w v : k = x i NXNXMXMXMXMXmXmXu v 3 8 h g x l 2 b , g ; w * r > m > j v 9 l = * 2 g 3 ",
",X8Xl.~ } oX] ' s.L rXI.m.j.H Y.H e w.,.>XP t.jX8. .2Xi NXNXMXMXMXMXmXmXu } %.'.Y z.B.U.$Xz.rXOXsX} 4.J.2.X.( 5 { ^ G 1.v.tXc.U ",
"! I 1XU.-Xd.8X$XI.v.1.M./ rX7Xz.7.w [.A.9.k.~.g.=X5.`.i NXNXMXMXMXMXmXmXu P.{ d.[.iXZ.| / H o.U.H.,.I.R.G.].{ k XX/.p.dX$X0.O.S.",
"O. XdXm.-XW N.i.2XM 3X7.>Xq.<.dXf.j I q.P.8.1.=._.7.;.i NXNXMXMXMXMXmXmXu 5Xc.].d.L.E N.B.m.3.i.U.j.iXZ.>XtXG.s tX0X8Xq.fXE.<. .",
"+.6XE.7.N.Y.P.uX).y.8.T.W 1XfX`.].e Y.K.R.b.e.}.7XeXM i NXNXMXMXMXMXmXmXu E g.jX} b...E c.=X;Xo.oX-XzXkX!.H F., %Xv.A.e.7XJ.H.+X",
"Z N.P X.Y.2.g.sXG +XT.OX8X<.8.(.%X2 fX$X( #.iX@.o o p i i i i i i i u u X + + X #.e.lX6XI.E  .I tXk.F.m.K.Z.XX6 [.o.! OX_.| A.v.",
"t.B.i.| kX~.#XgXG.M.uXG.X..XR.%XQ : B.T x.dXZ.+.p BXBXNXNXNXMXMXMXMXmXmXmXbXbX+ -Xf.X.P `.4.n.#.A.W C.O.&.;X6Xm sX{ =X5.n.^ Q lX",
":X;.P i.gXu.eXO.q.Z.&X7.#.;.(.P.:.s } yX:.&.rX( p BXBXNXNXNXMXMXMXMXmXmXmXbXbX+ `.xX2.N OXL r.OXW.gX! d.b.zX3.2 L./. X/.4.xXJ.A.",
"X.).) tXo.8Xy.8X-X7.,XlX].B.2X7XG.= s.I o.q.:XtXX p p i i i i i i i u u u + + X jXv.gX .y.+.A.n.N.q.L %X9X~ I.s F 6.jXK 7.+X0Xc."
};
