/* XPM */
static char *_365905aa18f4a4dd90d14f55eea3d4dJYk6Ppmh9mB89mzq[] = {
/* columns rows colors chars-per-pixel */
"64 64 243 2 ",
"   c #8F2121",
".  c #EB2121",
"X  c #C9B105",
"o  c #C6B901",
"O  c #0103BA",
"+  c #0807B8",
"@  c #010CBA",
"#  c #180AB7",
"$  c #0113B6",
"%  c #021CB6",
"&  c #0D1BB4",
"*  c #0114B9",
"=  c #0C14BA",
"-  c #021BBA",
";  c #0C1CBA",
":  c #1719B9",
">  c #2F0EB8",
",  c #241BB9",
"<  c #0123B7",
"1  c #0A28B6",
"2  c #0123BA",
"3  c #0C24BA",
"4  c #022CBA",
"5  c #0D2BBB",
"6  c #1323BA",
"7  c #132BBA",
"8  c #172BB8",
"9  c #0134B9",
"0  c #0835B8",
"q  c #013CBB",
"w  c #1736B9",
"e  c #1A3ABA",
"r  c #2326BA",
"t  c #3527B8",
"y  c #2637B8",
"u  c #243CBB",
"i  c #343ABB",
"p  c #4236B8",
"a  c #0846B9",
"s  c #1644B8",
"d  c #0A53B9",
"f  c #1555BA",
"g  c #2C45B9",
"h  c #2649B8",
"j  c #3548B8",
"k  c #2A55B9",
"l  c #3757B9",
"z  c #1560B9",
"x  c #3369BA",
"c  c #4657B9",
"v  c #4E50BA",
"b  c #516BB8",
"n  c #6275B7",
"m  c #0730C0",
"M  c #304EC1",
"N  c #0758E5",
"B  c #0469E6",
"V  c #1769E4",
"C  c #0174E4",
"Z  c #027CE4",
"A  c #0A7AE6",
"S  c #187AE4",
"D  c #2C68E4",
"F  c #2678E5",
"G  c #367AE5",
"H  c #4D7EE5",
"J  c #5D85B8",
"K  c #1097DE",
"L  c #2398DE",
"P  c #3B96DF",
"I  c #38A8DF",
"U  c #35B1DF",
"Y  c #0183E5",
"T  c #018CE5",
"R  c #0889E7",
"E  c #0B8CE4",
"W  c #1C84E4",
"Q  c #138BE5",
"!  c #1C8CE5",
"~  c #1588E8",
"^  c #0194E5",
"/  c #0C93E5",
"(  c #029BE5",
")  c #0C9BE5",
"_  c #0195E9",
"`  c #059CE8",
"'  c #1395E4",
"]  c #1C93E5",
"[  c #159BE5",
"{  c #1C9BE4",
"}  c #1795E9",
"|  c #2886E5",
" . c #238CE5",
".. c #2C8CE4",
"X. c #3885E5",
"o. c #338BE4",
"O. c #3B8BE4",
"+. c #2494E4",
"@. c #2B93E5",
"#. c #239BE4",
"$. c #2B9BE5",
"%. c #2899E9",
"&. c #3394E4",
"*. c #3B95E5",
"=. c #339CE4",
"-. c #3B9CE5",
";. c #3699E9",
":. c #01A4E5",
">. c #0DA3E5",
",. c #02ABE4",
"<. c #08A8E7",
"1. c #14A4E4",
"2. c #1CA4E5",
"3. c #15ADE5",
"4. c #1CABE4",
"5. c #17A7E9",
"6. c #06B5E5",
"7. c #02BBE5",
"8. c #0CBCE5",
"9. c #17B6E6",
"0. c #1BBCE4",
"q. c #23A3E5",
"w. c #2BA4E5",
"e. c #23ABE4",
"r. c #2CABE4",
"t. c #27A4E9",
"y. c #23ABE9",
"u. c #33A4E5",
"i. c #3BA4E5",
"p. c #34ABE4",
"a. c #3BABE5",
"s. c #33A3E9",
"d. c #3DA5E9",
"f. c #34ACE9",
"g. c #3BABE8",
"h. c #23B3E4",
"j. c #2BB2E5",
"k. c #25BCE4",
"l. c #2CBBE4",
"z. c #26B9E9",
"x. c #34B3E5",
"c. c #3BB3E5",
"v. c #35BBE5",
"b. c #3BBBE5",
"n. c #33B7E9",
"m. c #3DB3E9",
"M. c #3DBBE9",
"N. c #419EDF",
"B. c #4BB5DF",
"V. c #75AFDF",
"C. c #468AE6",
"Z. c #578CE6",
"A. c #4395E4",
"S. c #4C97E5",
"D. c #439CE5",
"F. c #4C9CE5",
"G. c #539BE4",
"H. c #5898E5",
"J. c #659CE4",
"K. c #749CE4",
"L. c #43A3E4",
"P. c #4BA4E4",
"I. c #43ABE4",
"U. c #4BACE4",
"Y. c #46A8E9",
"T. c #53A4E5",
"R. c #5BA5E5",
"E. c #54ACE5",
"W. c #5CACE5",
"Q. c #57A8E9",
"!. c #44B3E5",
"~. c #4CB3E5",
"^. c #43BBE4",
"/. c #4CBAE5",
"(. c #46B6E9",
"). c #54B5E5",
"_. c #5BB4E4",
"`. c #54BBE4",
"'. c #5BBBE5",
"]. c #54B3E8",
"[. c #58BAE9",
"{. c #67A8E4",
"}. c #64ACE4",
"|. c #73A9E4",
" X c #63B4E4",
".X c #6BB6E6",
"XX c #64BCE5",
"oX c #6CBCE4",
"OX c #74B3E5",
"+X c #78B6E7",
"@X c #74BCE4",
"#X c #7BBBE5",
"$X c #0BE5DF",
"%X c #33E5DB",
"&X c #07C7E6",
"*X c #19C6E6",
"=X c #04D4E7",
"-X c #1AD2E5",
";X c #24C3E5",
":X c #2CC3E5",
">X c #2ACAE7",
",X c #34C3E4",
"<X c #3CC3E5",
"1X c #33CBE5",
"2X c #3BCCE5",
"3X c #38C7E9",
"4X c #28D7E5",
"5X c #34D3E5",
"6X c #3AD5E5",
"7X c #10E4E6",
"8X c #2AE2E7",
"9X c #52C6DF",
"0X c #44C4E5",
"qX c #46C7E7",
"wX c #4CC4E4",
"eX c #4ACBE5",
"rX c #53C3E4",
"tX c #5BC3E4",
"yX c #54CBE5",
"uX c #5BCAE6",
"iX c #56C5E9",
"pX c #45D4E5",
"aX c #49D6E6",
"sX c #57D5E4",
"dX c #64C4E4",
"fX c #6BC5E6",
"gX c #63CBE5",
"hX c #72C4E4",
"jX c #79C7E6",
"kX c #67D8E5",
"lX c #70D3E4",
"zX c #79D3E5",
"xX c #4EE3E6",
"cX c #85B5E5",
"vX c #83BCE3",
"bX c #8FB8E5",
"nX c #8BE6DF",
"mX c #83C5E5",
"MX c #88C8E5",
"NX c #95CAE5",
"BX c #8BD7E5",
"VX c #95D1E5",
"CX c #A9D3E7",
/* pixels */
"u.uX2.C p.>X0XE $X= V dX]./ &.W P.uXc.2.S 0X`.J.                                =X~.I.[.'.< E | @XS !.x.t.rX@.e.!.a.r.P.3.I.F !.",
"0X].q.q.CXh.`.h.j.0 hXC.tX[.D.h.c.2.4._ uXu.z.#.  . . X . . . . . . . . X . .   r.).).A w.a aX-XwX/.@.y./.a.Y 1X@.,.~ b.r.].h.h.",
"w.kX0.7.oX4.@Xr.].8 ).@.,Xu.hXa.3.#Xc.Y kXR M.^.  . . X . . . . . . . . X . .   T ) ^.-X{ * n.[ E 5.*X0.U.G.-.+.w.n.XX*X:X#.,.oX",
"&X2Xp.<Xc.E ~.#XY.c i.L.4XY.+X{ P.[.;X9.BX.XgXr.  . . X . . . . . . . . X . .   Q.;X}.3.4Xi gXoX8X&.`.e.V p.bX^ ~.S !.:X<Xs.(.$.",
";.P.OXS.F t.U./.!.6 b._.R 5Xa.=.:Xp.T ' -.#.Z.:X  . . X . . . . . . . . X . .   X.U.XXl.p.& | P.^ P.F f.tX` 1X:.#.3.f.p._ c.A.0X",
"uXq.dXo.^.jX&Xv.'.1 U T XXT '.uXaX^.r.i.-.5.T !.  . . X . . . . . . . . X . .   M. X ./.T < / :XU.2XL.H.oX$.0.P.rXc.U.{ I.4.o.a.",
"Y.].#..Xa.) P.s.q.@ ] !.b.n.^ Z.,.=.F.(.d.i.E./.  . . X . . . . . . . . X . .   q.U.eX[.b.6 :XCXp.MX..( i.G c.].&.r.*.4Xq.tXo.@.",
"u O g : % s s 2 < ; w 2 9 3 4 # O + 4 n - 9 y -   . . X . . . . . . . . X . .   @ 6 = 9 $ % 4 5 d 3 5 = + 5 : y * 9 @ m 0 = @ : ",
"-XL.NXP.r.:.r.).'.v.~.F r.K.G.D.:.8 ).f.h.m.r.&X  . . X . . . . . . . . X . .   Q (.P.i.B +.I.h.r.p.h._.yX:.Z v $.F.t.4.E 3.r. X",
"r.hXn.B 3.E.T { r.s.M.BX[.$.$.;XY.= i.wXjXn.gX]   . . X . . . . . . . . X . .   VXOX,.O.].$.v.] i.VX+.L.xXF.p.h i.cX..F.&.b.m.<X",
":.T.pX4.u.<X@.| Y.) :.OX^ ~.i.D.&.8 =.hXP ~.}.%X  . . X . . . . . . . . X . .    XsXQ 8.5Xp.X.j.+X+.MX-.(.eX2.: ~.u.n.-.uX=.T ).",
"5.@X:X@.<X .x.r.1.} aXfXp.i.a.@XR.- w.F.V  X3X#.  . . X . . o X X o . . X . .   2. .L.wXA.v.^. .:.+.` ! V 1.i.a a.~.2.L.n.! -.( ",
"~.#.4.i.c.v.-.oXf.mX@XU U.aXh.tX] s 6Xa.*.r.,.:X  . . X . . X . . X . . X . .   x.E.,.XXp.=.!.~.R.D.Y <Xp.v.9X* ^.M.=.x.9XD.W b.",
"<XpXT.o.i.N V ^.L.a.OXu.>.V 0Xh.x.0 ^ p.pX+.@.p.  . . X . . X . . . . . X . .   rXS 5.1XH.U.r.p.7.L.4.j.a.f.a.2 &.a.oXeXZ >Xu.] ",
"T ] 8.Q M.~.{.Y 4.BXc.;Xv.%.I./.rXc !.j.T q.dXN   . . X . . X . . . . . X . .   ~.E._ u.q.C <X8.#.Y.-.{ 5.w.a.e o.;X^.l.5.W.u.p.",
"# e i @ 2 c 8 @ 6 c r @ e - * ; 5 3 % * i j 2 5   . . X . . X . . X . . X . .   u % < < 3 8 w u 4 2 b , q % n c p u & : v 4 * 4 ",
"R.hX=.j.` S.<Xy.S.r $.zXp.E Y.' a.p.) }.p.Y ^./.  . . X . . o X X o . . X . .   u.e.C ~._ @ u.}.t.a.B A.!.F.~.i.u.~.&XaXV mX`.2X",
"wXv./.S u.`.L.^.E.= e.{ w.dX`.L.D.L.c.&X*XtX#.XX  . . X . . . . . . . . X . .   ~.a._ s.F.@ x.;Xw.O.$.wXOX=.i.I.!.XXu.=.l.MXx.$.",
"T ~.U.=.k.p.{.!.~.% ~.G a.v.Z U.|.vXa.b. .[ B tX  . . X . . . . . . . . X . .   c.i.].r.`.5 ;Xo.p.>Xv.oXo.!.w.T w.p.pX*.i.q.$. X",
"~.9.=.P. X;X%.L.pX0 5.rXa.O.c.:.w.w.T b.1Xp.C.y.  . . X . . . . . . . . X . .   gX(...-.I.= p.F.( } I.-. .P.1.T hXrX&.j.;.U.[.u.",
"U.<X3.v.rXC.~ =.{.9 [ |.<.L.Y.~.I.dX^ :.x.MX[.!.  . . X . . . . . . . . X . .   '. Xq.$.s.* :.$.gX@.H.~...c.l.p.p.U.p.' ../.~.`.",
"4X6X!.9.T 5X{.X.yXc A.' E [ E.<X X>X0Xz.[ D.q.^   . . X . . . . . . . . X . .   ^ T p.=.4.* +.M.p.r.r.{ H q./.+.~.i.W 1.a.'. Xp.",
"l.E *./ 5.n.H H.].< 1.i.$.R.XXM.q.m.sXa.#.eX!.d.  . . X . . . . . . . . X . .    XvX1.$.I.@ ] <X}.;.^.v.c.!.8X) &.4Xr.l.7.<.-.u.",
"4 - * O 4 9 9 s = 9 0 % w , 4 % 2 5 2 @ e 7 ; 2   . . X . . . . . . . . X . .   2 * = l O b 3 $ c 7 t 8 * k < = * w i J e 8 - % ",
"3.,.I.tX'.D.u.&.k.l.<X].[ b.a.~.E.2 a.;XhX,.7X#.  . . X . . . . . . . . X . .   ( -.e.&XY @X5.~.tX[ c.&X;.^..X; ,.h.:.!.zXa.k.I ",
"-.q. XT x.!.wX=.^.<Xx.j.^.P r.=.oX0 d.-.*XY ~.mX  . . X . . . . . . . . X . .   b.`.~.e.^ [ W.i.l.c.*.mX1XL.w.s g.=.-XpX3.A ).I.",
"=.yX0X@X!.'.mX} vXr.!.4.0X$.{ sXV % vXeX1XXX#.pX  . . X . . . . . . . . X . .   3.c.t.&.f.(.7._. .*.j.p.,.( 0.8 fXI.T sX[.2.0X&.",
"w.~.X.7.~.j.p.`.1.{ a._.hXi.n.[ gX% i.CXY R.o.-.  . . X . . . . . . . . X . .   ~ hX2X( gX<XV c._.dX) ( #.*X:.e a.n.'.aXp.l.N.w.",
"h.h.k.n.Y.p.~.C.Y 6XM.2.x.4.2.`.rX3 O.v.~ @X/ &X  . . X . . . . . . . . X . .   ( :X=XeX+X(.e.q./ w.M.a.+.Y '.s ( ' }.e.=.| i.1X",
"0X%.;X-._.p.g.F.1.#.^  .k.^ i.Q.+.s P p.c.v.l.1XS     X . . . . . . . . X     p.h.oXa.j.C.a.e.( }.^.#Xa.*.*Xx.4 i.r.( I.! iXY I.",
"F.r.v.wXdXsX_.I T dXmX^ I.0XwX{.f.e =.*Xy.T v.tXdXF w.    . . . . . .     i.a.h.]./.&.+.F (.<XO. .#.B T.T a.u.* P.f.H.| -. .-.H.",
"@ g 0 : y 6 * m y 7 5 , O @ y 9 w $ , y # O 8 r 8 O a k d     . .     d j e + 7 - # l s % 3 * j h j > h k a 3 $ % q c O 7 , i e ",
"=.I.H.4. X!.T.I.2.* d.a.2Xd.q.W.D.S.2.G |.e.!.oXx.`.b 0X$.p.0X    NXD.z.U.7. X5.e.c.XX+.{.4 7XMXI.%.I A.I.5.&.@XcXQ { >.a.fX5.@X",
"w.c.( R.P.w.W fX+.h r.I.+.n.2Xp.!.i.| 8.D.I.hXgXXXp.4 ( T F.l.T =.m.#.q.n.6.u. .L.%X.X:.-.w i.u.l.0XwX3.w.c.W mX! nXaXq.r.) [.jX",
"~.j.:.b.V 7.bXb.r.@ @.t.a.#X.X2.i.L.2.w.o.S Y ).>X9.4 r.a.l.pX@.' L.P.E.Y C 6.<.:.3.`.H.g.i v.p.).~.pX! u.c.b.w.9.CX&.a.a.f.<Xa.",
"R.L.] 7X,X] 7.w.1.0 b.{ F.^ `.5.x.F f.*X[.I.4.B 1.6.- q.cX' jX0X| T rXp.!.5X^ ).9.,X+._.c.- oXI.'.9.>.4.b.P.e.h.2./.fXkX`.W.P.a.",
"k.l.q...a.VXF.o.n.; W.vXsX! {.aX=.p...T [.v._ -. .V.O ` I.x.].).e.6X+.D j.B n.k.oXkX^.I.p.2 ,.a.D ^ :.).*.*.iXT dX@XF.p.p.fXxXr.",
"D U._.D.e.}.( 9.=.c :.NX^.NXU.=.eX~.!.O.] p.`.,X( p.O tXa.4.E.A.;.}.o.,.<Xo.`.x.$.<Xa.{ <.b A.C S.$.) I. X#.a.f.MXG.>X0X}.A.~.^ ",
"T.Z S. XOX`.hXpX@X: ] ~.' -.o.pXk.I.u.F T.U.#X'.z.3.% `.P.O.w.-Xq.&X:X4X8.lXP.!.X.O.a.b.sX* i.:.c.-.fXZ G.XXA.1.cXwXU.!.I.P.=.( ",
"u y 1 4 - i s r : i c 1 % 8 @ e c 6 6 e @ = 0 a y * h 7 d $ 5 h - 3 * O h 0 $ w $ 1 f q - e 2 & u 4 6 5 $ 2 + + % 4 y = 8 @ h $ ",
"/.X.jX| ~.q.V 8Xi.'.!.:.p.+.=Xi.d.n L.o.iXfXrX^ >XhXrXT.p.q.:.OX) XXx.e.g 2.!.a.j.~.T W.d.W.o.` ^ 3.a.{ j.^.n.5 ..q.[ c.| NX8.O.",
"'._.1XB jXvXY ~.=.4.p.2X{ oXI.Z.{ u ) m.~.[.c.s.*.-X`.i.T p.n.$.!.w.VX:.- &./.T C.3.,.a.( x.OX}.f.#.=.4.L.1.r.v 2.#.Y.F } u.vXF.",
"2X,Xd.w.V 6.O.n.) c.:X;.U./.9.^ _ 4 j.L.V r.~ v.l.W.4.D :.^ P.e.}.v.p.^ 4 q.O..XuXaXy.4.hXn.q.%X{ `.a.&.~.{ -Xg R.$.u.+.`.oX^.C ",
"p.Y.eX .] ~.p.#.@XP.x.-X^.P.O.n.,X5 i.'.sXeX^.{.*XoX7.P.l.r.F.rXc.>Xj.Y g A I.>Xc.q.v.+.mXa.3.t.G.#.D.-.@XT.p.* yXR.mXaX0X~.8.t.",
"|.*.p.{ O.aXn. X!.4.*X}.b.pX) P.wX@ 5XZ.A p.I c.XX).MXa.m.kX,Xv.a.OXl.i.6 yX( W <Xa.%.4.jX` L.( 4.C oX! O.Y.G j o.p.gXC.^.I.sXh.",
"x.w.;.q.Z.t.a.L.%.U.^.!.) ' U.,XU.+ h.].X.z.B.,XY.!.9.-.=.{ S p.c.-.L.c.= x.^.[.kXjX.XE.aXF.L.c.q.4X0XMXP.Z mX4 -.`.2.0XP./.1.1.",
"b.>.-.,XA T.W G ^.l.@.^.yX*.^.c.' h {.p.I.2Xr.$.[.q.>.4.mX$.}.^.x.p.eX7.e ).h.'.:.N.9.yX`.OXY 1XsX4.Y 2XwXq.#X% / '.c.a.z.3.h.p.",
"2 # r w 4 9 9 9 8 0 % < s 5 3 y > 2 8 j e : 9 3 - h a g 1 y = e 0 ; j @ O ; k @ y 2 6 3 + - l : f @ * 8 - j 4 9 % + $ y 7 c y # ",
"p.Q J.P u.q.h.D.=.2 ^.<X/.j.s.Y T I.g.=.L._ %X<XQ A : /.{ 6.A a.XX&.L.F.&.yX`./.P. .a.!.4.9 gXT :X5.( y.i.E.=.u.wXa.L sX@.u.! h.",
"Q C.,.;.,. .n.h.e.*  X| o._.E.I.0X@.n.'.| 1XfXXX@.( 6 7.hX@.p.a.a.f.( sX8.=.i.D.-.^.N.6.z.c  .jXC ,X_.U.a.#X1.-Xc.u.~.&.7.i.i._.",
"S ~.+...( oXN >.XXl | !.#.) 6.:XeX!.a.gXXX#.q.L.u.pX$ o.' 3.a.p.p.i.&.w.c. .)./.q.}.x.vXM.= D.c.wXj.v.g.&.Q i.&.U./.] n.M...5X^ ",
"&.5X1.@.I.T.oXe.A * wXhXE./.( #Xu.T /.8.k.r.~.kXuXp.b Q i.MXeX>X0X^ MXjXo.<.i.:.'.T R 1.Y 2 m.i.a.+.bXkXn.a.1XQ o.kXy.`.@X1X,.XX",
"Y.W.5X_.$.D.yX9.<.d w.$.dX5XI.u.dX&X<Xv.;X).p.c.v.MXq / 2.S W.*XC ^.'.hX!.p.n.q..X0Xp.` } 3 n.z.i.a.U.:.a.MX^.k.hXl.!.k.$.r.c.c.",
"&.n.^.c.^ E.v.F }.8 D U.[ j.v.=XC.{.'.y.xXz.G ! #.jXy a.]  X2X) $.s.1.j.9.MX2.&X^.e.VX>.[.# k.M.W.n.MX,.U.].^ !.+.O.^.jXU.P.4.L.",
"T.9.T.BXr.x.I.:.'.n 4X<X<.=.^.U.] gXn.l.A.I.-.F Y ! v G.Y &.T.x.x.~.>Xl.NXB C.@.=.a.CXkXL.r <.9.U.c.M.dX0Xe.2.$XF *.{ 9.D.=.J.~.",
"7 = % f * l i y v 4 w s 0 u 3 = 5 # 5 % - y e @ g k * w 0 * % c M 7 O 3 9 w z - % j , 5 & O c 3 5 + q 3 * x 3 c s # k - u $ + 9 ",
"^.L.-.Y >.&X/ q.&Xa.#.,.>.+.1X].;.# R.| =.j.j.n.M.p.'. XoXtXJ.I ^ S.p.4.* 8.,X{ U.,X!.k.G uX@X( n.y.U.!.C.F F 5 H.D.a.jX0XF.] p.",
"3X} p.6Xl.0XC.4...F.q.+.!.l.OXkXe.1 b.#.S F.U.c.{.v.z._ jXQ '.;X,XU.G.C.; L.|.| r.i./.T 5.>.*XmX| W.l.sX^.w.6X2 G ~.2.B | x.Q.MX",
"w.p.tXfX,.[ 0XA.w._ eX{ sX&.dX5Xy.O '.*.p.q.>.p.j.,.!.:Xg.7X` ' a.^ ^ !.@  XVXe.1XY MXhXM.^. XW.*.r.).a.<XU.a.- p.~.K.W X.Y.^ $.",
"I._.G.<X:X8.^ 0Xi.i.{ ,.v.p.{.w.A.f p.' H.XXY.$.P.^.|.3.i.<.0X4XwX:.@.).3 hXx.F 1X&.VXx.rXF.yXo.I.:.MXU. X7.<Xg =.T.0.Y 2X1.i.0.",
"3.jXNXS.q.1.4.c.}.fX/.aXc.OXU.1X-X2 i.&.l.4.A.}.r.L.i.o./.j.` S.>.q.G 3.x | fXdX$./.M.Y.@.U.R &.c.g.P.hX6X!.p.3 3.w.Y.R.K v.8.j.",
"A ).I..X<.^.]._.a.[ /.$._.P.a.E.fX; L Z -.0.X.!.Z xXg.( 4.b.Q v.&XXXe.c.% T.<X$.h.<.pXW i.L.T.-.&Xl.>Xu.p.F { h 0XrXkX(.r.-.^ w.",
"'.oX3.rXr.2.m.*XD.T _.1XG.'.b.F v.l r.I.>.L.| tXT q.j.p.wX` D.].1./.tXS.O G._.P.G.F.u./ $.5X( p.,XI.G ^ ( @.q.g V j._.R dXp.J.d.",
"!.2Xr.hX^ E.c.^ U.s.].(.#.jXQ 4.v.a uX{ d.;.jXc.i.{ w.8.~.,XrX`. XS.0X-.4 8Xr.+X^ gXD.^ v.,X^.2.~.!.| E.E.;.1.- q.$.,.T.cXi.tXp."
};
