/* XPM */
static char *_8bfbbf8b0694b58ecd2008bd66788b8KaPAYWwtuIqg7qpa[] = {
/* columns rows colors chars-per-pixel */
"64 64 244 2 ",
"   c #2D536C",
".  c #32556E",
"X  c #45657D",
"o  c #0A259C",
"O  c #193698",
"+  c #25349B",
"@  c #0B18A2",
"#  c #0617A8",
"$  c #011EAC",
"%  c #0B19AE",
"&  c #050AB7",
"*  c #0313B4",
"=  c #031CB4",
"-  c #0917B9",
";  c #021BBA",
":  c #121BB7",
">  c #0626AA",
",  c #1627AA",
"<  c #0734AA",
"1  c #1736AA",
"2  c #0527B7",
"3  c #0B23BC",
"4  c #1529B9",
"5  c #0735B8",
"6  c #1836B8",
"7  c #2635AD",
"8  c #2229B9",
"9  c #2538B9",
"0  c #1343B0",
"q  c #2A48B6",
"w  c #354AB9",
"e  c #2E59B9",
"r  c #4A6981",
"t  c #556E83",
"y  c #5B7184",
"u  c #0603C5",
"i  c #041AC7",
"p  c #131AC6",
"a  c #0010D6",
"s  c #0527C6",
"d  c #1529C6",
"f  c #0934C6",
"g  c #1738C6",
"h  c #072AD4",
"j  c #132DD4",
"k  c #223AC6",
"l  c #2439D3",
"z  c #1943C4",
"x  c #0743D3",
"c  c #2444C5",
"v  c #304EC9",
"b  c #0E7BCA",
"n  c #057CD9",
"m  c #227DD8",
"M  c #027AE5",
"N  c #197CE5",
"B  c #2387BD",
"V  c #4791BF",
"C  c #0A8BCF",
"Z  c #188ACB",
"A  c #1C96CC",
"S  c #1689D6",
"D  c #0898D9",
"F  c #1896D9",
"G  c #2788C6",
"H  c #3689CA",
"J  c #2B97CB",
"K  c #3494CC",
"L  c #339BCB",
"P  c #3A98CA",
"I  c #288AD7",
"U  c #378CD9",
"Y  c #2795D7",
"T  c #249AD3",
"R  c #2C9CD4",
"E  c #239BDB",
"W  c #2B9ADC",
"Q  c #339BD4",
"!  c #3998D6",
"~  c #3395DB",
"^  c #339CDB",
"/  c #16ACCE",
"(  c #09A4D8",
")  c #18A6DA",
"_  c #28A5CB",
"`  c #38A5CB",
"'  c #2FB4CE",
"]  c #27A6D8",
"[  c #2CA3DD",
"{  c #2CABDD",
"}  c #34A2D5",
"|  c #3CA3D4",
" . c #37AAD4",
".. c #34A4DC",
"X. c #3AA3DC",
"o. c #34ABDB",
"O. c #3BABDC",
"+. c #28B6DC",
"@. c #34B2DD",
"#. c #38B7DA",
"$. c #0A88E5",
"%. c #1689E3",
"&. c #0799E6",
"*. c #1B95E4",
"=. c #159AE6",
"-. c #1C9BE4",
";. c #0D8BF4",
":. c #1A9AF6",
">. c #288BE6",
",. c #358CE5",
"<. c #2897E6",
"1. c #249DE4",
"2. c #2D9CE3",
"3. c #339BE4",
"4. c #3B9AE3",
"5. c #3797E8",
"6. c #2A8DF5",
"7. c #2796F7",
"8. c #3499F4",
"9. c #0AA6E8",
"0. c #1CA4E3",
"q. c #16A9E7",
"w. c #1CA3EA",
"e. c #0BB6E9",
"r. c #18B6E6",
"t. c #07A6F6",
"y. c #19A7F6",
"u. c #07B8F8",
"i. c #1AB8F8",
"p. c #23A3E4",
"a. c #2CA4E4",
"s. c #23ABE3",
"d. c #2BABE4",
"f. c #24A3EB",
"g. c #2CA4EA",
"h. c #23ABEB",
"j. c #2CABEB",
"k. c #33A4E3",
"l. c #3CA4E3",
"z. c #34ABE3",
"x. c #3BABE3",
"c. c #34A3EB",
"v. c #3AA5EB",
"b. c #34ACEB",
"n. c #3BACEA",
"m. c #2CB3E4",
"M. c #2BBBE3",
"N. c #26B7EA",
"B. c #2DB2EB",
"V. c #33B4E4",
"C. c #3CB3E4",
"Z. c #34BBE4",
"A. c #3ABBE4",
"S. c #34B3EB",
"D. c #3BB3EB",
"F. c #34BBEB",
"G. c #3BBBEB",
"H. c #26A9F7",
"J. c #2BABF3",
"K. c #37A9F6",
"L. c #28B7F5",
"P. c #33B4F1",
"I. c #3BB5F3",
"U. c #3BBCF4",
"Y. c #38B8F9",
"T. c #4798C9",
"R. c #4F93D3",
"E. c #4599D8",
"W. c #4AA5CC",
"Q. c #58A5CD",
"!. c #54B4CB",
"~. c #43A2D4",
"^. c #4AA9D7",
"/. c #44A4DB",
"(. c #44ABDD",
"). c #4CABDD",
"_. c #57A7D9",
"`. c #53ACDC",
"'. c #48B5D9",
"]. c #56B4DA",
"[. c #63AADA",
"{. c #67B6DC",
"}. c #72B5D9",
"|. c #459AE7",
" X c #4E9DEA",
".X c #42A5E3",
"XX c #4BA5E3",
"oX c #44ABE3",
"OX c #4BACE3",
"+X c #46A4EA",
"@X c #43ACEA",
"#X c #4AABEB",
"$X c #56AAE6",
"%X c #43B4E4",
"&X c #4BB3E4",
"*X c #43BCE5",
"=X c #4CBCE4",
"-X c #43B3EA",
";X c #4BB4EB",
":X c #44BCEB",
">X c #4BBBEB",
",X c #53B4E3",
"<X c #58B8E5",
"1X c #52B4EA",
"2X c #5BBCED",
"3X c #47AAF6",
"4X c #53A9F6",
"5X c #43B5F2",
"6X c #42BCF3",
"7X c #4CBBF3",
"8X c #49B9F8",
"9X c #56B8F6",
"0X c #65AAE3",
"qX c #65B9E8",
"wX c #70BBE2",
"eX c #64B8F7",
"rX c #38C2DC",
"tX c #17C5EB",
"yX c #0EC4F8",
"uX c #28C3E8",
"iX c #38C5E7",
"pX c #3BC4EB",
"aX c #2AC5F8",
"sX c #39C5F6",
"dX c #36D2F2",
"fX c #66C1DC",
"gX c #48CFE6",
"hX c #47C4E8",
"jX c #59C5E7",
"kX c #48C6F9",
"lX c #57C6F8",
"zX c #4CD3F0",
"xX c #59D6FC",
"cX c #65C5E8",
"vX c #6AC6F6",
"bX c #76CBF1",
"nX c #66D5FA",
"mX c #81BFE2",
"MX c #A4C5DB",
"NX c #84D2EC",
"BX c #B5D6ED",
"VX c #CADFF1",
"CX c #DBECF9",
"ZX c #EAF3FA",
/* pixels */
"=XE ..D 2.aXOXK z.d T o.{ w.jXkXD.j.8X=.1Xx.x.1.. . y t t t t t t t r r . X X   V.@..XG G.k ^ b R.5.^.~ ^.{ z.K.i.kX..G q.W.{ T ",
"i.cXH.0Xu.sX&.O.;.1 [ k.z.m.>X`.U.kXjX*XB.qX2XG.y ZXZXCXCXCXVXVXVXVXBXBXBXMXMXX %.3X/.vX`.6 C.kX<.c.K.>.] J xX0Xe.z..Xx...e.9.I ",
"z.U.2X` 9.;X4.! T.6 wX'.( ! R.+.0.V.@X5.J.7XU 4Xy ZXZXCXCXCXVXVXVXVXBXBXBXMXMXX I +X'.4X|.s W O.s.W T.^ ) x._ X.U.h.U =XlXaXp.! ",
"l.jX| M.~ Y R R <X2 8X! G W j.S.N k.I.pXqX-XC +.  y y t t t t t t t r r r X X   iX1.s.b.2X- 7X`.j.*.G.Y jX6Xk.U..X! 3X].bXT.S.K.",
"hXw.f.J =X4X&.#X} - '.Z.z.S 3X[ w.-Xx.jXj.d.aX#.V.h.5 t CXCXVXVXVXVXBXBXr <.oXj.U +X/ P.XX* #XC.<X~.zX1.h.I jXXXJ kX).d.lX5Xh.o.",
"pX9..XjXrX>X<.<.J 2 (.0.L.&X2X..*XL.'.I -XF./.n yXb.O t CXCXVXVXVXVXBXBXr z.B.Z I./.<X).K.> ].2.s.y.j.sXm w.8XD 3XD.iXnX{ l.^.T ",
"] D.#.1Xp.<Xc.OXd.j 9XO.iX$X0.(.$.C K h.b.$X#Xl.eXW.w t CXCXVXVXVXVXBXBXr ] F.G.X.S.|.c.` 3 9.p.m.XXjX@.F.cXsXH.f.iXM.( H.T XX%X",
"6 l j 8 & 6 4 g # 5 , , = h d , s 4 * d , 4 4 2 2 4 j t CXCXVXVXVXVXBXBXr c f j : 4 8 3 1 , 4 i - 5 < 2 5 d 1 1 = i a , s ; , ; ",
"`._ 0.v.L.@X>XK.d.{.S._ W.k.N bXV.i hX&X+.w.R ) 0.sX_.t CXCXVXVXVXVXBXBXr ' qXoXw.9X] j.jXM.kXW &.8XvXC.;X:X8Xo |.] 2X~ Y 2.<.-X",
"D.G.fX| d.XXJ J `.F X.6X~ h.&XXXU.p 0.cXM.P.;X-X'.0XE.t CXCXVXVXVXVXBXBXr XXt.uXW kXwX^ Q *.p.y.S.0Xa.F _.wXQ.> C.a.F.R.o.C.V.iX",
"L.`.*.bX^.%XK Z.H.F A._ F X.Y.S 7Xl %.U I.jXk.5.n.g.! t CXCXVXVXVXVXBXBXr uX-Xm qX^ Q X. . .q.cXF.,.%X,Xj.5.H 1 wXY.`.0.>.C.nX) ",
"{ &X` 8.D.p.~.4.R ,XsX2XK c.9.o.eX# O.E.=XkXa.! jX,.hXt CXCXVXVXVXVXBXBXr Y.1XH.Z.x.h.Z S qX4.U.) oX6Xo.Q 2.z.5 &Xz.' Q C.C.4X| ",
"5.d.N.;.#.R R.{ ;XhXiXA.k.I K zX7Xl H } -.V.-Xx.{  .W t CXCXVXVXVXVXBXBXr b.O.*.x.r.D OX'.H.} [ ;X..lXb.%.b.*.+ a.C.C S >XOX+X[ ",
"d.|.jXY.g.-X$.x.1.kX..2XL.,XA P.{ c Y J.O.C.;X5Xz.^ Y.t CXCXVXVXVXVXBXBXr ~.kXl.hXE sX]...V.H g.cX*XG 9.+Xj.I.k A.o.cX3.'.} 0X .",
"f..XS.].>X$.] *XQ e.m.Y.K N.`.v.-XO I z.E vXH.W.[.J.K.t CXCXVXVXVXVXBXBXr i.n.&. .I.-.O.5.Q.`.e.l.U _.1X! e.A 4 @X4.l.,XO.E.s.X.",
"> , 6 f 5 2 , 4 6 2 $ s - > d 9 ; i q 4 s > q # * # i t CXCXVXVXVXVXBXBXr s c s : $ q l # < i < < s d k ; s u 6 2 * o 6 p $ 5 o ",
"U ~.s.&.^ X.,XOX3Xq H S.@Xa.A.hX_.(.8XE.>X4.qXvXv.-X3 t CXCXVXVXVXVXBXBXr q.aX! C.8X'.M T s [ z.9.K.J ;Xw.Y.+.qX$.A oX*.pX.XW [ ",
"] kXQ.D ) D x.5.p.* N.<..Xh.L.W.jX` U Q.h.oX_.S.a.J 9 t CXCXVXVXVXVXBXBXr x.D I m.3XJ.V.hXj L.A.[./ -.y.L *.0.p.=.>X).$X( ^.p.hX",
"Q -X=X;XO.k.r.aX^ & S...=X&X0.vX^.7X!.jXD hX7.C.hXsX= t CXCXVXVXVXVXBXBXr z.sXA C 2XM q.9.: O.Y.e.G.I sXsXeXh.3X^.(.|.0XE.kX&.U.",
"C.1.] [ *.k.f.3.a.= C.Y n jX=.C.V.D -X5Xy.z.L C.Y.$X6 t CXCXVXVXVXVXBXBXr z.4.#. .5X<.2XlXd *.n.tXo.;X8X-.<XY 7.$XkXk.8.eXI.Q kX",
"].<X&Xy.L.s.4.Y.4.a d.1X@XT q.:...! 7XI &XF.qXE.I.H.1 t CXCXVXVXVXVXBXBXr =Xt.M.n.T.&X5XXX6 v.5.].[ 9.|.C.Y.y.~ k./.{ ;XY.A d.iX",
"| a.7X|.A <.E lXt.w %.z.oXS.} J 1X{.D.uXl.Y kXF.=.<Xj t CXCXVXVXVXVXBXBXr 9.q.o.&.+XD J T 6 v.lXM.#.4.*XR Z.S jX).K.|.iX>.n.W.#.",
"n.'.^ @.}.t.dXC.h.s g. .J P. .j.1X-.I *.} ;.5XR C.) $ t CXCXVXVXVXVXBXBXr Q.+.K.$.+X#X} l.u _.L.uXS.l.x.P oXbXn.0.-.w.Y.1XxXXXF.",
"# 6 * < 1 ; 6 2 # 3 s 0 & a * 6 d h g i $ & q % 0 6 ; t CXCXVXVXVXVXBXBXr 3 w 2 , 6 s i q & 5 i 8 k 9 $ 4 > 6 s 8 k , 2 1 v 1 c ",
">X$.:Xt.{ T.#.%.^.wXoX! :.x.9XP.6X3 Z.E j.(.z.Z [ ] Q t CXCXVXVXVXVXBXBXr oX,.>.oX=X;XF XX$Xw.}.lXO.cXE s.sXiX6 F 7.0.0.M ^ E.N ",
"Z { aX+.S.#.kXN...F.A.hXH OX=X~ 4X2 /.u.o.eXL.1.lX>X=.t CXCXVXVXVXVXBXBXr ^ U.<X7.' lX#.Q 9.%XF.U  .W.b.J.nX1.; U p.7Xo.X.[ ^.0.",
"<.-XR.s.sX6.J.=.].e.U.#.x.r.kXc.qXu t.hXQ n W.r.-X! :Xt CXCXVXVXVXVXBXBXr ! @.] `.OXkX].A oXdXZ.1XA.3.&.=.s.@.0 p.S.`.Y..XT W z.",
"V.^.lXf.>XL q.&XD.&X{.dXx.D.!.lXi.2 S.j.nX2.2Xb.o.kX[ t CXCXVXVXVXVXBXBXr b.b.NXsXI lX&.4.^ ;Xi.xXi.N.@XoXD.kXs K I uXa.=Xd.).k.",
"/.6Xa.^ '.x.fXY.E /.z.=X} Z.+.tXb.1 a.O.s.;X=X5.Y K.U.t CXCXVXVXVXVXBXBXr <X:.q.D.A.1.Q.C.S.w.} D U D x.j.| =.2 r.p.n.,XhXF.W.&.",
"_ 8X.X7Xr.) } %X,X_ bXy.I.*.G.[ m l M.J 3Xq.=XT cXnXS t CXCXVXVXVXVXBXBXr aX_.Z oX`..XvXW.1Xk.6.o.D.J._.I.F P.5 #Xn n./ '.R M.#.",
"nXd.kXvX).P gX .S C.q..X<.i.9.l.vX4 =.x.@Xk.sX{.H J [ t CXCXVXVXVXVXBXBXr B.3XZ I.1.8XD 4.5.{.&.X.R.2.| 5X).iX4 n.E.{ $.h.C.m.#.",
", h g $ l 3 u % > v & d g f 0 2 2 p f g 2 = s s > # s t CXCXVXVXVXVXBXBXr p 1 g h O 4 p h e * 8 k e q x = # 2 = - f > 3 s i 6 3 ",
"0.i.k.v.V D Z hXA.- i.( X.x.lX[ sX*X_.@X<.kXR.! OXh.; t CXCXVXVXVXVXBXBXr -Xx.l.2XJ.<.1X0X3 lXdXT.2.Q ].<XA.~.cX.X<Xa.l.K.( Y.;X",
"{ g.X.~ XX7XX.jXn.2 $XG.l.<.e.z.5.iXS R.0X7Xl.z.O.6.w t CXCXVXVXVXVXBXBXr ..2.] ).tXU 1.j.+ _.A.=XI.<.gX2XXX$XlXM.x._./.{ b.S.hX",
"E.8X2X! 2.,X=.<X&.= &.W v.J ` xXt.7X9XcXk.lXU.K.x.8.2 t CXCXVXVXVXVXBXBXr =Xz.oX^.<.l.L.) l J.3.'.lXQ k.1.l.J.-X3.).W ~ ..S.dX-X",
"qXJ.p.'.-.OX! XX&.j w.T.k.L V.~ j.8.lX{ Q.:X..z.mX{ > t CXCXVXVXVXVXBXBXr v.|.y.%.b S.Q O.v O.{.Q ).G {.9.sXl.OX+XT.F.j.x.R o.q.",
"P.{.N.&Xn #.7Xy.D.i J ~ ] %.1X@Xg.M.eXqXV P. X&.A A.< t CXCXVXVXVXVXBXBXr kXkX6Xx.=.U #.c.5 1.U.h.hXpXO.qXv.I.>X%.zX*.2X9Xk.P.0.",
"%.5.F.3.O.) m $.H.g 1X~ 1.,XC kXl.&.A P.w.@.Z 5Xu.k., t CXCXVXVXVXVXBXBXr I.cX_.pX5._ X.V.5 dXs.a.qXq.x.s.8X$X#.z.~ ^.#.L pX#X} ",
"! .XZ eX} F U. .z.4 1XlXA.@.r.3.V.^.y.^.8.I.! qXN.0.d t CXCXVXVXVXVXBXBXr I ^ A.*.o.<.@X#X6 2X&Xb.0.~.k.l.hXH.Y.vXU -Xr.J ~ :Xq.",
"4 * h g + o f 0 u , d v x o # i 2 > * : f 4 , & 3 c 6 t CXCXVXVXVXVXBXBXr 6 9 : 6 2 & 4 w s > 9 5 2 = 0 4 > $ , 6 q > d s > 4 % ",
"w.| oX>XOX0.aX(.Y.(.tXZ.v.O.,.! -X, '.a.E.^ {.k.x.@.W t CXCXVXVXVXVXBXBXr qX3.S { n.).n.&.5.Q +.E.aX>X$Xn.$X=.5 r.F qX` <X9.$X2.",
"F nXqXjXA.hXl.sX7X/.b.z.k.%Xy.t.aX& E L Y hX~ kXqXkXxXt CXCXVXVXVXVXBXBXr ..Q F.D.5X].B.}.!.uX$XD...s.N U.iXI.@ |.i...aX,.=XG.L ",
"n j..X4.%X).qXhX7X,XxX`.#XcXdXl.q.0 C.0XE vXv.#X1.,.D t CXCXVXVXVXVXBXBXr dXU [ 4XyX] m.W +.-.Y B.8.2.lXg.B.C.p ~.=.5.| m.~ hXF ",
"1XjXZ.+X%X%.A ).&.I.C K F r.2.5.d.0 V.S  X;X! F J *.P t CXCXVXVXVXVXBXBXr '.lXx.b.3.Y.P.N.^.~.*Xb ) J ! [.#.-.& F p.O.o.%X[ y.'.",
"K.b. XW.&.3XzX8X4XJ.c.l.h.R B.eX{.= g.L.i.T iXlXP 8. .t CXCXVXVXVXVXBXBXr &XQ _.OXW.+...<XI.z.w.nX#.;.U cXR .., l.Q 2.s.M.2.I.%X",
"_ jX^.d.8...~ W @.;Xb D uXsXb.#.3X* sXq.G.B.H.C.L a.k.t CXCXVXVXVXVXBXBXr x.sX9XjXN e.J >.aXg.x.].K.U.=Xt.K.r.3 7.D.L L 6XnXz.W ",
"OX9.;X3.| ,X*XO.5.l.%.) R :.r.J.@.l &X~ _.` L M.OXn.Y.t CXCXVXVXVXVXBXBXr O.e.&.S =.&X! ;X<.I qX_.F vX..|.G.`.i M.'.Q.rX!.=.D.<.",
"$ q 7 5 = f + : i ; # z & 2 9 d f d 5 , : & 0 g > h 9 t CXCXVXVXVXVXBXBXr f , * 6 6 d 4 6 0 8 g 3 3 2 h % f 2 ; i f d a 2 v 9 c ",
"3. .O.! 4.v.=X<X$.& '.Q C ].e.y.C.+X2.U.S.>X<XN.zXcXv t CXCXVXVXVXVXBXBXr #.hXE.|.lX[ K.-Xg -XoXo.O.>X7.d.;XwXJ.t.#X&.#.1.-XP.N.",
"&.nX( N &X<.].} Z.: ] l.%XL.~.U.`.,XK.h.( w.&X^.E 5Xf t CXCXVXVXVXVXBXBXr h.W.O.k.H.V. .XX: <XK R ~.a._ kXxXy.E.J.H.sXlX<.w. .T ",
"'.v.R cXy.x.v.<.0.> 4.iXA.uX{.].V.r.-X&X!.-.iXg.sX#Xk t CXCXVXVXVXVXBXBXr sXsXqX9XS.( q.3.7 n.H.3X`.b.f.q.k.-X' =X9X[.sX-X3.H.7X",
"P. .j.d.d.G.o.'.q.% ,XA.T ).L.1.#X}.b.3.cX=.5X<Xx.3Xp t CXCXVXVXVXVXBXBXr D.aXp.2Xp.&Xv.k.4 P v..XQ.j.K v.5XE +.0. .P.N.lX%.y.7.",
"` K J Y.B.b.k.x.| 1 X.=XU.].'.,XvX3XE eX/.uX|.$X#.D.f t CXCXVXVXVXVXBXBXr :Xx.'.{.-X9Xh.j.* X.6XZ.s.L.1XT T pXC.;.L.#Xg.q.m.k.i.",
"D 4X8XW.oX].W bX^ g 3.#.[.w.j.m.s.| $Xd.d.S [  Xj.O.9 t CXCXVXVXVXVXBXBXr ).f.oX5.{ r.zXoXi cXI [.y.a.F.lXE 1X5.^.oXw.^ uX^ *Xp.",
"J.>...K S.G.I L.Y < E q.3XhXi.8XjX1.<.].*Xt.n.[.n.=.d t CXCXVXVXVXVXBXBXr q.).&XF.z.z.J #.; K.2.] 1.J.5XL.x.qXW &Xz.N.o.5XoXo.w.",
"2 - 7 5 1 > d * : % - 6 f v 6 4 v > 2 @ g 9 z - g $ k t CXCXVXVXVXVXBXBXr z < 5 d s k h , x ; s * 9 # q = v = f z 6 h $ * , s < ",
",X9Xj.Q [ +X` _ p.H uXL.b.g.D I.D 0 0.:.>XJ e.xX6.} 3Xt CXCXVXVXVXVXBXBXr [ #._.I k.M.P.$Xk.uXoXhX[ 2.G.<. .^ 2 ] ! S ,.x.pXz.L ",
"W P 1XP.-Xa.9X$XL.x.,.n.~ uX8Xk.5.9 ].C.7.s.Q.d.=X3.).t CXCXVXVXVXVXBXBXr K.] a.].dXV.{ ~ D ..P.F.:.L.Y.D.!.] g .X~.u.jX$X8.X.Z.",
"X.|.jXb.-XR m.y.3Xb 4X5.>X9.>.jXs.f K 9.K.6.,.&.(.5.=.t CXCXVXVXVXVXBXBXr 6Xz.'.a.J.T m.M.b.1.y.P.g.dXV.>XiXD.i iXqXlX9.kXT.>.} ",
"o.7XT.5.m.I.K.sX/.r.6.U.R 1XkX).'.0 I.H.sXc.q.{.8XtXb t CXCXVXVXVXVXBXBXr T d.xX[ c.| T z.=X;X..XX-XbXcXW.D S.; %Xx.C.9.8XG.F.OX",
"B m.J  .I.<.d.hXS OXU.oX9X>.6.^.%X, kX$X^ +.dXO.. . y t t t t t t t r r   X X   +.q.vX7XL.T } K iXs.S.b.H.S..X3 `...W oX^.{ C.x.",
"e.M.y.{ cXQ.#XlXD.n.sXD. . XY.-XE - M.U l.jXV.o.y ZXZXCXCXCXVXVXVXVXBXBXBXMXMXX -Xs. .L ).2.v.+.C.R B.X.$.;X7Xv hX[ =X3.v.! E vX",
":X*.J y.lXt.yXX.9.V.&X5.+.=.^.K.-.i W aX-.$.uX^ y ZXZXCXCXCXVXVXVXVXBXBXBXMXMXX ).nX<.n oXH w.oXR.lXW a.c.bX1., J.~.|.~.2.nXG.C.",
" ././ iX..2Xr.9X-X5.,XvX'.M.3X8XD.$ p.K ..9.:XiX  y y t t t t t t t r r r X X   xXx.lX} r.o.C.v.m.9.H -X0XQ L.i A 4.xXG 5.XXqXz."
};
