/* XPM */
static char *f749c44662a146dab5c8a9df46ada64beGwIluZQ6D9V1ogs[] = {
/* columns rows colors chars-per-pixel */
"64 64 187 2 ",
"   c #196C04",
".  c #1A9100",
"X  c #359F09",
"o  c #6BD151",
"O  c #92E76F",
"+  c #00179A",
"@  c #00189E",
"#  c #09209D",
"$  c #13289C",
"%  c #061EA5",
"&  c #091FA0",
"*  c #031DAC",
"=  c #021CB3",
"-  c #011DBB",
";  c #0A21A4",
":  c #0720AC",
">  c #0C24AC",
",  c #1027A5",
"<  c #192EA6",
"1  c #132AAC",
"2  c #1D33AC",
"3  c #0620B5",
"4  c #0B25B4",
"5  c #0F28B5",
"6  c #0621BB",
"7  c #0B25BB",
"8  c #0E28BC",
"9  c #132BB4",
"0  c #182FB1",
"q  c #122CBB",
"w  c #1B32B5",
"e  c #1730BE",
"r  c #1B33BC",
"t  c #2C3FAC",
"y  c #2237B1",
"u  c #253AB4",
"i  c #2037BB",
"p  c #243BBC",
"a  c #293FBA",
"s  c #2D41B5",
"d  c #2D42BB",
"f  c #011EC2",
"g  c #001ECA",
"h  c #0522C4",
"j  c #0925C3",
"k  c #0E29C3",
"l  c #0321CA",
"z  c #0A27CB",
"x  c #0D2ACE",
"c  c #122CC3",
"v  c #132ECA",
"b  c #1731C5",
"n  c #1B34C3",
"m  c #1F38C5",
"M  c #1732C8",
"N  c #1B35C9",
"B  c #1E39CF",
"V  c #0C2AD4",
"C  c #0525D9",
"Z  c #1632D2",
"A  c #1B38D9",
"S  c #233BC5",
"D  c #263FCA",
"F  c #2540D6",
"G  c #1D91CC",
"H  c #0E93D5",
"J  c #0C96DB",
"K  c #0F9ADF",
"L  c #1394D5",
"P  c #1995D4",
"I  c #1D98D6",
"U  c #159ADD",
"Y  c #1D9CDC",
"T  c #218EC5",
"R  c #2C93C7",
"E  c #2694CB",
"W  c #2D97CC",
"Q  c #2C98CE",
"!  c #3496C6",
"~  c #3296C8",
"^  c #339ACD",
"/  c #3B9CCD",
"(  c #2397D1",
")  c #2499D4",
"_  c #2C9CD5",
"`  c #239DDB",
"'  c #2A9FD9",
"]  c #329ED4",
"[  c #399FD2",
"{  c #24A0DE",
"}  c #2CA2DD",
"|  c #34A0D6",
" . c #3CA2D5",
".. c #33A4DC",
"X. c #3BA6DB",
"o. c #3CA8DE",
"O. c #089DE7",
"+. c #129DE2",
"@. c #1A9EE1",
"#. c #0FA1E9",
"$. c #14A0E6",
"%. c #1CA2E5",
"&. c #15A4EB",
"*. c #1CA5EA",
"=. c #1DA9EE",
"-. c #0FA5F0",
";. c #12AAF6",
":. c #1CABF2",
">. c #1DB1FB",
",. c #24A4E4",
"<. c #2CA6E3",
"1. c #2DA8E6",
"2. c #23A7E9",
"3. c #24AAEC",
"4. c #2CABEB",
"5. c #32A7E1",
"6. c #34AAE4",
"7. c #3BACE4",
"8. c #34ADEA",
"9. c #3AAEE9",
"0. c #35B0EE",
"q. c #3CB1EC",
"w. c #24ADF3",
"e. c #2BAFF1",
"r. c #24B0F5",
"t. c #2CB1F4",
"y. c #23B4FD",
"u. c #2CB5F9",
"i. c #2EB8FE",
"p. c #34B3F3",
"a. c #3BB5F2",
"s. c #3EB8F6",
"d. c #32B6F9",
"f. c #34BAFC",
"g. c #3CBBFA",
"h. c #4099C6",
"j. c #429ECB",
"k. c #4A9FC9",
"l. c #45A1CE",
"z. c #49A2CF",
"x. c #43A4D5",
"c. c #4AA4D2",
"v. c #4CA8D5",
"b. c #43A7D9",
"n. c #43AADD",
"m. c #4BACDD",
"M. c #50A6D0",
"N. c #52AAD6",
"B. c #54AEDB",
"V. c #58AFDB",
"C. c #55B1DF",
"Z. c #5BB1DD",
"A. c #43AEE3",
"S. c #4AAFE1",
"D. c #45B0E6",
"F. c #4BB1E4",
"G. c #49B2E6",
"H. c #43B3EB",
"J. c #45B2EA",
"K. c #4BB5EA",
"L. c #4DB6EA",
"P. c #4AB6ED",
"I. c #4DB8EF",
"U. c #53B4E4",
"Y. c #59B5E3",
"T. c #5EB9E6",
"R. c #53B6E9",
"E. c #53B9ED",
"W. c #5BBBEA",
"Q. c #42B7F1",
"!. c #46B9F2",
"~. c #44B9F4",
"^. c #4BBBF3",
"/. c #43BDFA",
"(. c #52BCF1",
"). c #58BEF2",
"_. c #66BBE6",
"`. c #61BDEB",
"'. c #45C1FF",
"]. c #49C2FE",
"[. c #54C1F7",
"{. c #5AC1F5",
"}. c #54C3FB",
"|. c #5BC5FA",
" X c #69C0EB",
".X c #6AC8F7",
"XX c #73D0FE",
/* pixels */
"6.K.<.&.8.8.q.) -.7 } S.A.3.6.<.o.H.7.<.} X.H.A...0.= <.A.*.8.Y | 6.a.e. .*.^.o.u.7.7.P.x.= ( 5.R.) X.^ 6.A.8._ 7.6...9.1.a.p.7.",
"7.!.8.1..X1.H._ 8.4 E.7.D.J.7.<.6.' <.y.!.6.8.} 0.q.7 W.X.A.+.H.!.a.7./ ,.| 6.q.0.n./ 2.g.= H.1. .Q.6.f.H.7.#.6.0.2.u...8.H.8.<.",
"| G.} 3.c.4.m.6.H.> H.8.6.| G...` m.7.,.K.y.s.o.} ` 8 7...D.2.>.G.<.q.3.0.| L.6.Y ,.q.<.<.= a.3.,.1.1.<. .A.9.8.5.0.P.1.6.1.,.}.",
",.o.| 9.7.3.A.U.'.D 9.q.| 7.(.<. .^.p.d.Y.L.P.8.) 9.8 q.^ 2._ 7.f.L.A.n. .Q.<.9.!.' x.} 6.A G.m.d.6.A.} <.Q T.&.H.,.X.6.7.s.'.8.",
"p.7.U.[ _ 8. .A.o.8 7.j.u.8.| | 6.] &.( 9.6.D.6.n.s.9 ` }.{ a.G.6.>.L.6...1.1.8.q.H.J.5.| > p.o.%. .1.a.!.e.| :.<.3.a.6.y.] 7.9.",
"P.1.x.5.7.U.` 6.^.& R P l.Y D.J.9.7.6.| 7.t.K 7.G...4 R m.*.` 6.} ..| ] | U.6.6.7.m._ H.%.4 ,.8.H.7.7.H.L.8.} 7.H.7.7.<.7.<.6...",
"7.P.} G.q.{ o.a.1.6 1.X.7.8.*.H.%.6.7.'.g.7.H.A.6.6.2 | 7.n. .H.P 5.D.m.5.` n.^ 8.H.7.^.q.x 0._.9.B.5.+.7.6...Q.| ..7.0.8.D.8.6.",
"e - 2 8 = q 9 = = k q - = 7 - : = : j s 7 - q 3 6 * r = - u q * > 4 S = g j = c - 5 7 = * = 7 4 4 4 k 8 4 x 9 1 6 = h C 4 4 f 9 ",
"1.o.T.7.| =.6.P.D.8.o.W 8.m.n.q.Y , n.a.p.a.8.2.%.) U.7.Q.5. .6.G./ g.).z O X   <.. H..   } 7.8.6.8.<.H.A.3.{ D Q 7.5.Q 2.1.8.A.",
"_ S.0.) <.A.@.1._ p.7.Y.P...5.8.q.4 q./ E.9.S.<.6.8.7.q.a.L.m.a.3.G.6.d.- 1.6.O o m.o ..X } . 1.9.`.} o.~.H.6.9 6.N.5.H.| | s.6.",
") !.[ ' 6.q.} _ o.,.Y (.( A.q.7.0.9 6.m.~ o.P.q.7.| ,.q.,.p. .2.p.7...8.q   [ . G.  1.. q.6.7...C.} W...'.q.} 9 o...6.q.K.8.2.P.",
"1.U.p.} 9.<..._ ,.t.7.(...9.7.m.J.7 5.o.<.I.s.1.^ G.G.m._ 8.3.9.t.8.H.7.e . 7...' 4.[ H.X.a./.} $.} w.<.) <.7.4 7.A.,.7.a.1.q.U ",
"~.d.<.7.7.6.g.m.p.{.S.^ 7.Q._ D.} 5 8.q.| 5.I ..X.| 6.` d.E.s.^.H.D.6.q.5 } ..,.| D.P I.6.6.7.7.A.7.=.6.6.a./ - ! a.6.6./ 7.) 7.",
"6.7.H.8.7.H ' o.7.X.(.6.,.,.7.} 6.k $.q.q.<.g.6.q.J.9.4.g.1.7.<.q.^.I x.- P. .4. .e.f.0.x.7.0...*.7.<.8.7.g.q.- ..7.I.Q.` ..8.1.",
"` 1.3.{ q.7.G.@.<.W.9.8.6.p.7.o.A.p 9...2.4.J.O.6.X.A.7.P /.8.9.7.....K.3 a.3.a. .A.:.6.<.2.o.3.Q q...1.i.5.| 9 p.4.7.8.u.!.8.8.",
"7 q e l 6 u 1 6 > p n j 9 f l 7 k 4 : - w p l 7 u 9 M 6 N k - - 8 = 7 = 7 > i S b > 3 3 4 q > 1 = - a q l - s p w q ; 9 p 6 - l ",
"!.S...5.3.A.9.d.Q.9 ..U...2.a.1.| 6.,.. 6.O . . o . s C.' q.| 8.q.4.9.s.} U.o.7.6.} +.H.w.3 | G.p.o.:.X.q.H.7.7.8. .=.H.,.U.H.9.",
"q...H.' 6.n.q.s.A.8 <._ ..^.n.X.7.a.7..   . X O . m.h m./ E %.X.8.6.8.m.a.7.d.A.H.7.y.p. .* 9.p.0.7.6.A.E.8.7.X.q.I.0...5.B...8.",
"I A.q.6.1...m.X.o.- A.6.X.a.@.A.(.U.7.X.. } . . ` 7.- h.6.1.] 0.U ] d.7.I.o.) (.7...!.8.A.j <.6.5.p.6.R.6.q...U 8.5. .| q.8.8.G.",
"H.1.^ A.n.1.p./ q.> 1.A.] 9...*.8.8.{ 7.| 8.7.d.g.0.- *.G.7.[ L.q.7.,.+.7.7.<.0.L.~.6.9.7.4 6.Q.2.` a.9.6.~.,.%.m.n.| 8.a.o.A.6.",
"H.7.` 6.Q.H.t.6.m.6 <.G.2.X.o.7.q.S.Y ` 6.W.A.X.3.E.1  .] 3.f.U.%.m.2.6.5.` 9.n.b.A.1...g.= Y 6.z.6.b.A._ | 8.] | 7.8.,.| A.H. .",
"8.6.7.{ U 6.m.q.A.p 7.1.` <.H.7.G.d.s.5.' 7.<.%.} ,.8 6.A.,.I.q.n./ ,.3.<.,.7.6.w.*.6.6.<.6 <.7.6.5.8.1.7.p.X.4.A.6.1.,.q.P.S.q.",
"5.` 7.,.u.g.A.x.!.* ( 6.0.A.K.g.1.a.A.X.8.7.9.a.O.) - 8.0.H.o.` t.H...| g.' q.2.m.M.,.6.7.- 1.7.S.a.7.6.7. ...w...<...6.%.,.o.| ",
"3 g g f - * h , 7 3 8 6 c q 6 3 - k V - 4 c k = > 7 w * 4 7 7 v = 8 = 7 = C 7 7 f = # n = a 4 % S 8 9 c - n = 4 3 9 m s v q f = ",
",.w.X.x.D.X.6.p...5.7.A.<.9.6.A.n.= 6.<.G.3.} 8.....G.L.n.7.>.. ,.  o . 6 | b.6.` 7.<.u.I E.1. .D.,.q.` g.X.L.7 +.<.*.9.{.q.6.R ",
"7.8.A.*.8.X.7.8.7.] ..5.q.^ | 6.G.j a.7.} 2.H.B.7.7.6.} p.6.n.5.} . 5.O 9 5.].U.7.A. .} %.} G.] ..7.q.U.0.7.Q 4 s.0.1.7.,.,.A.a.",
"6.A./.G.q.D.W.4.B.} o.t.X.5.<.b.<.= U.~.6.P.<.9.x.} d.X.H.9.6.X.q.8.. o c E.A.2.1.7.} 5.a./.r.H.1...0.0.U 3.4.4 }.X.%.n.H.4.q.6.",
"5.H.6.3.A...7.n.{ 1.7.b.E.6.6.<.G.f ..XX,.P.] q.9.U.m.!. .` A./ 1.8.] . 7 6.X...e.G.7.` A./.<.^ x.G.3.I _ <.&.q q.6.b./.| 5.! 8.",
"} 6.<.8.a.6.H.q.#.6.s.<.6.<.E H. .8 7.a.u.c.,.,.4.| X.9.} w.6.8.!.,.6.H.b 7.!...2.5.2.q.E.Q.6._ ,.6.s.9._ &.A.> %.<.A.8.6._ X...",
"q.p.1.6.b.q.a.A.1.} *.8._ K 9.]._ 4 ^ 6.q.q.p.8.3.8.H.| 7.L d.9.7.| I.B.k ,.7.6.<.(.| _ 7.6.' %.G.9.U.7.q.e.6.= q.6.&. .} Q.%.o.",
"H...g.Q.^.A.n.^ ` S.W.U 7.7.A.m.g.9 5.3.f.2...n.A.<.} R.3.9.e.7.S.A.n.Y * 6.7.1.~.H...1.<.'.^ 6.4.1.3. .2.7...6 A.a.n.} 7.<.7.A.",
"- e 7 1 n q - V 0 8 k 9 6 3 w % q % 9 9 > h 9 1 c - 7 b 4 = - 7 k - - 6 w q 3 q 4 > 2 8 6 k - < q w 4 b n 7 7 = = V p - 8 q w q ",
"6.7.].4.n.q.!.X.<.3 g.. 7.s.<.  9.. <.| G.p.7.G.] D.a X.5.| 7.q.(.W.X.6.7.=.m.u.<.7.S.1.G.4   o 9.O   q.q.    . U.<.} ,.X.L.u.G.",
"6.6.` A.H.8.<.}.1.1 6.O X . 9.o . 8.8.) 7.7.k.S.b.5.6 ` 2.o...%...g.' <.6.` 6.8.q.6.j.&.9.9 ... 6.q.. o . 7.<.N.1.W.q.0.W 3.J.R.",
" .8.2.] <.*.W.q.d.6 5.. . U.E.. 7.7.} 5.6._ Y  .p.E 4 | 7...7.0.1.7. .P.J *.,.,.:.<.P.x.a.n 7.o . o.. ) | ..7.0.1. X8.6.6.g.q.7.",
"A.X.<.,.a.} &.0.<.4 . ' q.Y  .4.] _ a.<.^.[ <.3.3.` z <.W.{ {.7.8.%.A...q.8.*./ i.W } A.7.6   . / 4.3.1.7.7.} 6.} H.G.I.D.D.o.7.",
"5...6.6.7..XH...6.7 A.U. .<.m.[ | ^ 0.2.A.8.y.7.8.k.6 e.q.5.D. .8.a._ } 6.-.q.<.c.m.q. .8.- I 7.^ =.Y H.5.7.].&.J.G.q.0.9.G.q.| ",
"5.[ !.7.1.G.@.p.6.p &.Z.[ T.A.8.o.7.s.7.t.6.A.9.Y 5.= D.6.} D.7.a.G...2.9.8.A...6.9.q.} { a q.U H.8.( X.n.Q | a.B. ...7.m.q.A.2.",
"n.Y o.n.G.A.[.7.v.q <.7.) q.6.Q.<.q.6.p./.7.U.x.6.} * A. .a.6._ Q 3.0.d.` m.A.q.9.| q.9.D.6 q.,.7.5.m.Y  .L.7.} C.[  .X.7.o.6.,.",
"b 9 : * 7 N , q Z 2 p 4 ; > 6 9 y 9 8 q * 7 4 k M - e > 7 * 4 1 j z 6 = $ 7 * c * : c l j c = > b - v k = - * 7 6 6 0 7 Z l 9 + ",
"A.6.R.5. .4.} f.q.n.q.U ..} *...s.t 7.6.].L. .2.5.U.D.. 6.O . o T .   } 9 <.a.....H.3.D.s.!.6.3.I <.9.} 6.X.6.k 6.1.<.7.6.Y.1.q.",
"n.A.p.*.).B.*.Q.7.1.6.9.1.c. .A.4.9 u.a.7.D.7.g.7.u.x.X.. 6.8.  o . Z.  g ..A.%.H.1.G ..U 8.m.I.p.4.a.1.q.,.8.u 1._ '.5.e.8.U.~.",
"q.| g.8.,.w.7.6.,.] 5.a.H.A.e.%.w.6 ..7.e...u.8...n.} p.,.%.7.8.O 8.7.O - p.] L./ o.f.t.z.8.1.6.1.A.q.| A.4.1.w P.6...<.H.G.7.Y ",
"5.q.o.} 4.H.8.6.E. .6.} 7.7.X.5.q.k ..H.D. .X.G.1.m.) '.5.8.X.H.q.. 5.. e ` 7.<.7.1.| <.Y.9.1.<.H.4.9.7.E.A.a.= !.D.R.o.7.Q.` <.",
"m.q.6.1.]  .0.J.7.' i.G...X.,.7.Q.h 8.H.3.| ^ | n. .B.7.s.G.... 7.m.5.7.8 A.%.} 7.| p.1.U.,.X.+.1.Y G.4.X.X.8.w 6...G.q.7.7.K.8.",
"6...g.' A.f.X.q.p.Q.X.q.,.` o.6.q.7 1.!.9.f./ 6.q.7.) ..8.,.<.0.7.q.7.6.z 6.q.D.G.B.}.A.'.A.7.! 5.} 7.Y. .,.W.- q.A.e.7.Q.7.<.<.",
"7.,.] 6.` D.1.q.s.} 6.X.n...7.7.,.M L.6.~.q.8.5.A.1.3.1.B...n.q.0...H.Y q A.} D.3.^ ,.A.H.m.2.6.n.<.U ..7.6.U.= 3.K.7.X.p.i.<.6.",
"= 4 b > - @ 6 * c 8 3 7 q 8 7 1 4 f > r q 5 6 k - 9 j w 4 9 7 q 4 7 r - g 4 0 6 1 f c x j 7 < 4 k 3 3 1 3 r g l - g = 9 4 y , > ",
"5.<.c.! ] 4.<.7.6.= X.o   ] . 2.Y O . ] 7.y.^ q.e.) q q.4.2.3.9.G.6.X.A.8.P. .H.o.<...7.} 6 K.J f.u.%.d.6. ...8.H.9.R A._ 0.4.Q ",
"u.H.2.s.w._ 6.<._ -   _ O X   . q.5.8.. p.8.L.G.5.2.8 *.z.0.6.7.6.a.3.D.,.8...7.6.7.^ ,.d.F 6.).P ] A.7.7.R.` ' 7.| ~...@...q.x.",
"E 7.8.6.%.E.*.3.^.p } . 8.. { | . q.. S.^.} p.q...7.4 6.E ,.7.9.6.q.8.8.7.<.n.7.p.S.| c.q.4 a.7.H.8.7.g.| ,.a.6.[ o.<.a.s.6.] G ",
"6.| t.6.q.A.m.} e.f   E.D.A.@.R...:.!.2.6.5.H.}.A.6.d ` q.Y.o.6.X.I W.U.6.( 7.,.!.>.` ) ` 3 /.8.7.} Y.G.7.| ..` 6.K.4.!.U.| O.G.",
"7.D.6.A.8.7.A.<.2.7 . 6.c.| q.| S.2.6.9.6.A.| 7.9.R.- 2.} <.n.t.w.7.D.G.7.8...} E.q.6.,.<.7 a.f.6.q.o.$.9.W.7.<.G.8.a.Q ..8.9.q.",
"| 6.7...3.A.a.} n.> ..7.` f.| 2.7.G.n.d. .f...t.d.U.1 7.1.A.7.,._ a.{ } 1.B.<.w.7.8.T.2.D.4 1.7.A.q.Y.=.7.!.3.9.1...7.U.~.H.<./.",
"A.1.A.Y.8.| 7.:.A.t p.7.,.| X.A.1.I.6.8. .q.q.p.Y 1.p n.%.6.A.....A.8.p.T.*.X.] 5.7._.(.[ 9 3.e.A.7.9.m.7.<.1.,.8...} } / | ^. .",
"> x - q j w n 9 y 6 , 9 4 q 8 7 8 7 8 6 f b 9 = w e z 4 7 - 6 p A k - ; = 8 q f : n 9 k ; 6 u k 4 > - k = m > 2 c > < j 9 3 4 = ",
"7.q.X.Y ( ,.,.<.3.6.8.L e.<.6.H.g.4 P.1.8.5.| a.7.6.P.G.G.n.m.^ 3.Q.6.' 6 1.6._  ...q.d...n.m.2.6.p. .o.9.} _ k H.7.] R.7.q.<.6.",
"a.1.q.a...7.q.<.d.o.8.8.q...m.L.1.; q.8.t. .o.7.G.6.d.r.U.,.n.5.q.D.A.s.8 q.z.W 8.7.H.2.t.u.<.|.<.!.6.x.7...X.= 6.H.<.@.Q ..].W.",
"..6.K.}.%.1.7.7.0.;.A.<.!.8.G.p.p.- J.7.8.} ,.0.d.&.7.8.a.1.2.) q.I +.7.g P.Y.1.6.&.U.U.s.7.A.K.q.| A.q.q.7.9.j q. .G.' | 7.%._ ",
"X.D.A.7.5.` %.Q.9.q.} >...6.^.5.o.5 6.,.n.n.q.8.H.X.m.) 7.2.X.}  .,.0. .7 U.] 5.5.| V.8.D.~.D.5.X.%.C.7.K.Y X.w 6.A.p.$.6.} 9.} ",
"<.}.`.X.1.<.} 6.S.(.7.A...m.q.] <.3 9.6.8.<.X.A._  .9.| 7.5.,. .` <.a.u.9 _ G.n.8.7.s.'...7.e.| 7.a.H.v...q.6.4 ( 5.~.D.T q.{ ..",
"r.H.7.L.2.X.].D.9.<.7.p.P.Q.7.P.^.k E 2.9.) 7.o.&.H.g.%.} 7.,.0.2.m.<.9.- A...] 6.,.9.<.q.7.A.7.2.0.8.6...d.4.9 q.x.G.~...7.+.6.",
"n.m.,.n.5.d.a.1.7.:.n.8.n.P.q.} 8.B 5.q.3.o...D.2.1.6...o.w.q.H.<.H.J.~.l /.A. .D.7.6.` 0.6.Y 8...q.6.*.2.6.} e ` d.D.3.^.6.A.a.",
"7.9.5.G.I A.q.=. .p.!./.<.U.1.<...4 P.<.s.a.|.7.6.4.6.3.n.8.A.b.G.7.q.X.6 8.8.{.%.m.7.,.8.6.X.E ~.q.p.H.J.q.<.6 1...G H.{.X.A.6."
};
