/* XPM */
static char *_b7540b216be46959641413190488dd6HDq80J9Zr9BWZZv0[] = {
/* columns rows colors chars-per-pixel */
"32 32 91 1 ",
"  c #006A06",
". c #0A6A11",
"X c #126A19",
"o c #18691F",
"O c #1D6924",
"+ c #206928",
"@ c #24692C",
"# c #276930",
"$ c #2A6833",
"% c #2E6836",
"& c #306839",
"* c #33683C",
"= c #35683E",
"- c #376741",
"; c #3C6746",
": c #3E6748",
"> c #40674A",
", c #42664C",
"< c #476652",
"1 c #4A6555",
"2 c #4C6557",
"3 c #4D6559",
"4 c #52645E",
"5 c #6F5F7E",
"6 c #705F7F",
"7 c #576364",
"8 c #586365",
"9 c #5D626B",
"0 c #60626E",
"q c #636171",
"w c #656173",
"e c #666175",
"r c #696077",
"t c #6A6079",
"y c #6C607B",
"u c #715E80",
"i c #765D87",
"p c #7A5C8B",
"a c #7E5B8F",
"s c #7F5B90",
"d c #815A92",
"f c #8C579F",
"g c #865998",
"h c #88589A",
"j c #8D56A1",
"k c #9354A7",
"l c #9752AB",
"z c #9454A8",
"x c #9852AD",
"c c #9E4FB3",
"v c #9F4FB4",
"b c #9E50B3",
"n c #A14EB7",
"m c #A54CBB",
"M c #AA4ABF",
"N c #BB3FD3",
"B c #BB3FD4",
"V c #BC3ED5",
"C c #BF3CD8",
"Z c #C636DF",
"A c #C13ADA",
"S c #C339DC",
"D c #C438DE",
"F c #DF0EFB",
"G c #DF0DFC",
"H c #DA1CF6",
"J c #DE12FA",
"K c #DD15F9",
"L c #DC18F8",
"P c #E200FF",
"I c #E104FE",
"U c #E009FD",
"Y c #CE2EE9",
"T c #D327EF",
"R c #D426EF",
"E c #D02BEB",
"W c #D02CEB",
"Q c #D229ED",
"! c #C636E0",
"~ c #CA32E4",
"^ c #CC30E7",
"/ c #D722F2",
"( c #D525F0",
") c #D820F4",
"_ c #AB49C1",
"` c #AD48C4",
"' c #B046C7",
"] c #B245CA",
"[ c #B742CE",
"{ c #B444CC",
"} c #B940D1",
/* pixels */
"                                ",
"                                ",
"                                ",
"                                ",
"                                ",
"                                ",
"                                ",
"    smn=      1mml#      emm9   ",
"    zIJi      hPPH7      mPF8   ",
"    qUPb      'PPPa     XDPW%   ",
"    &TPV.    $~I^PM     :HP[X   ",
"    o}P/&    8H)xPZ+    pFIk    ",
"     xPJ6    dP~0H/4    vPU0    ",
"     rUPx    _P`+^Pp   .APQ*    ",
"     -(PN.  @!Pg ]Pm   =/P}o    ",
"     OVPR$  4)H0 fPSo  uJPl     ",
"      bPKt  pPY# eL(2  xPIw     ",
"      5IPk  mP{  *EPu  VPT-     ",
"      ;/P[ +SPj   }Pc %RPNO     ",
"      +CPQ+2/Kr   lPVXyKPx      ",
"       nPLquPQ*   6JQ<zPIt      ",
"       iIIjvPB    ,RIr[P(:      ",
"       ,HP{VPl     APbQPVO      ",
"       @AP/(Ju     vPYKPb       ",
"        mPPP(>     pGPPP5       ",
"        pPPPA      3/PP/,       ",
"        </JJb       DJJV+       ",
"        .%**O       $**$        ",
"                                ",
"                                ",
"                                ",
"                                "
};
